!!!!SEGMENT: pl-wtm--r-1015_kurpinski-karol-kazimierz--mazur-oblezenie-warszawy.krn
!!!cenid: 18xx:2163
!!!COM: Kurpiński, Karol Kazimierz
!!!COM-rismID: pe30018952
!!!CDT: 1785/03/06-1857/09/18
!!!CNT: Polish
!!!OTL: Mazur Oblężenie Warszawy
!!!PDT: 1831
!!!AGN: Secular
!!!SMS-siglum: PL-Wtm
!!!SMS-shelfmark: R 1015
!!!SMS-shelfwork: W
!!!SMS-variant:
!!!SMS-altvar:
!!!NIFC-rismSourceID: 1001083780
!!!NIFC-rismChildID: 1001083780
!!!NIFC-islandoraID:
!!!URL-pdf-islandora:
!!!URL-scan:
!!!ONB-nifc: UWAGA: Partia puzonu i kotłów zapisana na osobnej karcie. Zgodnie z poprzednimi ustaleniami – umieścić na dole partytury.
!!!AIN: 1 alto 1 clars 1 cor 4 empty 1 fagot 1 oboe 1 picco 1 soprn 1 tenor 1 timpa 1 tromt 1 viola 1 violn
!!!key:
**kern	**dynam	**kern	**dynam	**kern	**dynam	**kern	**text	**dynam	**kern	**text	**dynam	**kern	**text	**dynam	**kern	**text	**dynam	**kern	**dynam	**kern	**dynam	**kern	**dynam	**kern	**dynam	**kern	**dynam	**kern	**dynam	**kern	**dynam	**kern	**dynam	**kern	**dynam
*part16	*part16	*part15	*part15	*part14	*part14	*part13	*part13	*part13	*part12	*part12	*part12	*part11	*part11	*part11	*part10	*part10	*part10	*part9	*part9	*part8	*part8	*part7	*part7	*part6	*part6	*part5	*part5	*part4	*part4	*part3	*part3	*part2	*part2	*part1	*part1
*staff16	*	*staff15	*	*staff14	*	*staff13	*staff13	*	*staff12	*staff12	*	*staff11	*staff11	*	*staff10	*staff10	*	*staff9	*	*staff8	*	*staff7	*	*staff6	*	*staff5	*	*staff4	*	*staff3	*	*staff2	*	*staff1	*
*Itimpa	*	*Itromt	*	*Iempty	*	*Iempty	*	*	*Itenor	*	*	*Ialto	*	*	*Isoprn	*	*	*Iviola	*	*Iempty	*	*Ivioln	*	*Iempty	*	*Ifagot	*	*Icor	*	*Iclars	*	*Ioboe	*	*Ipicco	*
*I"Tympani	*	*I"Trombone Baſso	*	*I"Baſsi	*	*I"Baſsi	*	*	*I"Tenori	*	*	*I"Alti	*	*	*I"Soprani	*	*	*I"Viole	*	*I"2do	*	*I"V: I.	*	*I"Tromby in C	*	*I"Fagotti	*	*I"Corni in g	*	*I"Clarinetti in C	*	*I"Oboi	*	*I"[[fl]] piccolino	*
*clefF4	*	*clefF4	*	*clefF4	*	*clefF4	*	*	*clefC4	*	*	*clefC3	*	*	*clefG2	*	*	*clefC3	*	*clefG2	*	*clefG2	*	*clefG2	*	*clefF4	*	*clefG2	*	*clefG2	*	*clefG2	*	*clefG2	*
*	*	*	*	*	*	*	*	*	*	*	*	*	*	*	*	*	*	*	*	*	*	*	*	*	*	*	*	*ITrd3c5	*	*	*	*	*	*ITrd0c0	*
*k[f#]	*	*k[f#]	*	*k[f#]	*	*k[f#]	*	*	*k[f#]	*	*	*k[f#]	*	*	*k[f#]	*	*	*k[f#]	*	*k[f#]	*	*k[f#]	*	*k[f#]	*	*k[f#]	*	*k[f#c#]	*	*k[f#]	*	*k[f#]	*	*k[f#]	*
*G:	*	*G:	*	*G:	*	*G:	*	*	*G:	*	*	*G:	*	*	*G:	*	*	*G:	*	*G:	*	*G:	*	*G:	*	*G:	*	*G:	*	*G:	*	*G:	*	*G:	*
*M3/8	*	*M3/8	*	*M3/8	*	*M3/8	*	*	*M3/8	*	*	*M3/8	*	*	*M3/8	*	*	*M3/8	*	*M3/8	*	*M3/8	*	*M3/8	*	*M3/8	*	*M3/8	*	*M3/8	*	*M3/8	*	*M3/8	*
=1	=1	=1	=1	=1	=1	=1	=1	=1	=1	=1	=1	=1	=1	=1	=1	=1	=1	=1	=1	=1	=1	=1	=1	=1	=1	=1	=1	=1	=1	=1	=1	=1	=1	=1	=1
*	*	*	*	*	*below	*	*	*	*	*	*	*	*	*	*	*	*	*	*	*	*	*	*	*	*	*	*	*	*	*	*	*	*	*	*
!LO:TX:t=P:problem=dźwięki GG i D zamiast oznaczenia tonacji	!LO:DY:rj	!	!LO:DY:rj	!	!LO:DY:rj	!	!	!	!	!	!	!	!	!	!	!	!	!	!LO:DY:rj	!	!LO:DY:rj	!	!LO:DY:rj	!	!LO:DY:rj	!	!LO:DY:rj	!	!	!	!LO:DY:rj	!	!LO:DY:rj	!LO:TX:a:t=spiewany w Teatrze war&colon; d&colon; 4go Wrzesnia 1831	!
16GG/LL	f	16G\LL	f	16G/LL 16GG/	f	4.r	.	.	4.r	.	.	4.r	.	.	4.r	.	.	16b\LL 16g\	f	16g/LL 16B/	f	16gg\LL 16b\ 16d\	f	16g/LL 16G/	f	16B\LL 16G\	f	16g/LL 16G/	.	16gg/LL 16b/	f	16gg\LL 16b\	f	16gg\LL	.
!LO:N:vis=16	!	!LO:N:vis=16	!	!LO:N:vis=16	!	!	!	!	!	!	!	!	!	!	!	!	!	!LO:N:vis=16	!	!LO:N:vis=16	!	!LO:N:vis=16	!	!LO:N:vis=16	!	!LO:N:vis=16	!	!LO:N:vis=16	!	!LO:N:vis=16	!	!LO:N:vis=16	!	!LO:N:vis=16	!
32r	.	32r	.	32r	.	.	.	.	.	.	.	.	.	.	.	.	.	32r	.	32r	.	32r	.	32r	.	32r	.	32r	.	32r	.	32r	.	32r	.
32GG/JJk	.	32G\JJk	.	32G/JJk 32GG/	.	.	.	.	.	.	.	.	.	.	.	.	.	32b\JJk 32g\	.	32g/JJk	.	32gg\JJk	.	32g/JJk 32G/	.	32B\JJk 32G\	.	32g/JJk 32G/	.	32g/JJk	.	32gg\JJk 32b\	.	32gg\JJk	.
8GG/L	.	8G\L	.	8G/L 8GG/	.	.	.	.	.	.	.	.	.	.	.	.	.	8b\L 8g\	.	8b/L	.	8bb\L	.	8g/L 8G/	.	8B\L 8G\	.	8g/L 8G/	.	8b/L 8g'/	.	8gg\'L 8b'\	.	8bb'\L	.
8GG/J	.	8G\J	.	8G/J 8GG/	.	.	.	.	.	.	.	.	.	.	.	.	.	8b\J 8g\	.	8dd/J	.	8ddd\J	.	8dd/J 8g/	.	8d\J 8B\	.	8g/J 8G/	.	8dd/J 8b'/	.	8bb\'J 8dd'\	.	8ddd'\J	.
=2	=2	=2	=2	=2	=2	=2	=2	=2	=2	=2	=2	=2	=2	=2	=2	=2	=2	=2	=2	=2	=2	=2	=2	=2	=2	=2	=2	=2	=2	=2	=2	=2	=2	=2	=2
*	*	*	*	*	*	*	*	*	*	*	*	*	*	*	*	*	*	*	*	*	*	*	*	*^	*	*	*	*	*	*	*	*	*	*	*
*rep	*	*rep	*	*rep	*	*	*	*	*	*	*	*	*	*	*	*	*	*	*	*	*	*	*	*	*	*	*	*	*	*	*	*	*	*	*	*
16GG/LL	.	16G\LL	.	16G/LL 16GG/	.	4.ryy	.	.	4.ryy	.	.	4.ryy	.	.	4.ryy	.	.	16a#X\LL 16g\	.	16cc#X\LL	.	16ccc#X\LL	.	8r	16g\LL	.	16c#X\LL 16A#X\	.	16g/LL 16G/	.	16cc#X/LL 16a#X/	.	16aa#X\LL 16cc#X\	.	16ccc#X\LL	.
!LO:N:vis=16	!	!LO:N:vis=16	!	!LO:N:vis=16	!	!	!	!	!	!	!	!	!	!	!	!	!	!LO:N:vis=16	!	!LO:N:vis=16	!	!LO:N:vis=16	!	!LO:N:vis=16	!	!	!LO:N:vis=16	!	!LO:N:vis=16	!	!LO:N:vis=16	!	!LO:N:vis=16	!	!LO:N:vis=16	!
32r	.	32r	.	32r	.	.	.	.	.	.	.	.	.	.	.	.	.	32r	.	32r	.	32r	.	.	32r	.	32r	.	32r	.	32r	.	32r	.	32r	.
32GG/JJk	.	32G\JJk	.	32G/JJk 32GG/	.	.	.	.	.	.	.	.	.	.	.	.	.	32a#\JJk 32g\	.	32cc#\JJk	.	32ccc#\JJk	.	.	32g\JJk	.	32c#\JJk 32A#\	.	32g/JJk 32G/	.	32cc#/JJk 32a#/	.	32aa#\JJk 32cc#\	.	32ccc#\JJk	.
8GG/L	.	8G\L	.	8G/L 8GG/	.	.	.	.	.	.	.	.	.	.	.	.	.	8a#\L 8g\	.	8ee\L 8cc#\	.	8eee\L	.	8ee/L 8g/	8g\L	.	8c#\L 8A#\	.	8g/L 8G/	.	8cc#/L 8a#/	.	8aa#\L 8ee'\	.	8eee\L	.
8GG/J	.	8G\J	.	8G/J 8GG/	.	.	.	.	.	.	.	.	.	.	.	.	.	8b\J 8g\	.	8dd\J	.	8ddd\J	.	8dd/J 8g/	8g\J	.	8d\J 8B\	.	8b/J 8g/	.	8dd/J 8b/	.	8bb\J 8dd'\	.	8ddd\J	.
*	*	*	*	*	*	*	*	*	*	*	*	*	*	*	*	*	*	*	*	*	*	*	*	*v	*v	*	*	*	*	*	*	*	*	*	*	*
*Xrep	*	*Xrep	*	*Xrep	*	*	*	*	*	*	*	*	*	*	*	*	*	*	*	*	*	*	*	*	*	*	*	*	*	*	*	*	*	*	*
=3	=3	=3	=3	=3	=3	=3	=3	=3	=3	=3	=3	=3	=3	=3	=3	=3	=3	=3	=3	=3	=3	=3	=3	=3	=3	=3	=3	=3	=3	=3	=3	=3	=3	=3	=3
*rep	*	*rep	*	*rep	*	*	*	*	*	*	*	*	*	*	*	*	*	*	*	*	*	*	*	*rep	*	*rep	*	*rep	*	*	*	*rep	*	*rep	*
!	!	!	!	!	!	!	!	!	!	!	!	!	!	!	!	!	!	!	!	!	!	!	!	!LO:TX:t=P:problem=znak powrtórzenia 2 taktów (na kresce taktowej)	!	!LO:TX:t=P:problem=znak powrtórzenia 2 taktów (na kresce taktowej)	!	!LO:TX:t=P:problem=znak powrtórzenia 2 taktów (na kresce taktowej)	!	!	!	!LO:TX:t=P:problem=znak powrtórzenia 2 taktów (na kresce taktowej)	!	!LO:TX:t=P:problem=znak powrtórzenia 2 taktów (na kresce taktowej)	!
16GG/LL	.	16G\LL	.	16G/LL 16GG/	.	4.ryy	.	.	4.ryy	.	.	4.ryy	.	.	4.ryy	.	.	16b\LL 16g\	.	16g/LL 16B/	.	16gg\LL 16b\ 16d\	.	16g/LL 16G/	.	16B\LL 16G\	.	16g/LL 16G/	.	4.ryy	.	16gg\LL 16b\	.	16gg\LL	.
!LO:N:vis=16	!	!LO:N:vis=16	!	!LO:N:vis=16	!	!	!	!	!	!	!	!	!	!	!	!	!	!LO:N:vis=16	!	!LO:N:vis=16	!	!LO:N:vis=16	!	!LO:N:vis=16	!	!LO:N:vis=16	!	!LO:N:vis=16	!	!	!	!LO:N:vis=16	!	!LO:N:vis=16	!
32r	.	32r	.	32r	.	.	.	.	.	.	.	.	.	.	.	.	.	32r	.	32r	.	32r	.	32r	.	32r	.	32r	.	.	.	32r	.	32r	.
32GG/JJk	.	32G\JJk	.	32G/JJk 32GG/	.	.	.	.	.	.	.	.	.	.	.	.	.	32b\JJk 32g\	.	32g/JJk	.	32gg\JJk	.	32g/JJk 32G/	.	32B\JJk 32G\	.	32g/JJk 32G/	.	.	.	32gg\JJk 32b\	.	32gg\JJk	.
8GG/L	.	8G\L	.	8G/L 8GG/	.	.	.	.	.	.	.	.	.	.	.	.	.	8b\L 8g\	.	8b/L	.	8bb\L	.	8g/L 8G/	.	8B\L 8G\	.	8g/L 8G/	.	.	.	8gg\'L 8b'\	.	8bb'\L	.
8GG/J	.	8G\J	.	8G/J 8GG/	.	.	.	.	.	.	.	.	.	.	.	.	.	8b\J 8g\	.	8dd/J	.	8ddd\J	.	8dd/J 8g/	.	8d\J 8B\	.	8g/J 8G/	.	.	.	8bb\'J 8dd'\	.	8ddd'\J	.
*Xrep	*	*Xrep	*	*Xrep	*	*	*	*	*	*	*	*	*	*	*	*	*	*	*	*	*	*	*	*	*	*	*	*	*	*	*	*	*	*	*
=4	=4	=4	=4	=4	=4	=4	=4	=4	=4	=4	=4	=4	=4	=4	=4	=4	=4	=4	=4	=4	=4	=4	=4	=4	=4	=4	=4	=4	=4	=4	=4	=4	=4	=4	=4
*	*	*	*	*	*	*	*	*	*	*	*	*	*	*	*	*	*	*	*	*	*	*	*	*^	*	*	*	*	*	*	*	*	*	*	*
*rep	*	*rep	*	*rep	*	*	*	*	*	*	*	*	*	*	*	*	*	*	*	*	*	*	*	*	*	*	*	*	*	*	*	*	*	*	*	*
16GG/LL	.	16G\LL	.	16G/LL 16GG/	.	4.ryy	.	.	4.ryy	.	.	4.ryy	.	.	4.ryy	.	.	16a#X\LL 16g\	.	16cc#X\LL	.	16ccc#X\LL	.	8r	16g\LL	.	16c#X\LL 16A#X\	.	16g/LL 16G/	.	4.ryy	.	16aa#X\LL 16cc#X\	.	16ccc#X\LL	.
!LO:N:vis=16	!	!LO:N:vis=16	!	!LO:N:vis=16	!	!	!	!	!	!	!	!	!	!	!	!	!	!LO:N:vis=16	!	!LO:N:vis=16	!	!LO:N:vis=16	!	!LO:N:vis=16	!	!	!LO:N:vis=16	!	!LO:N:vis=16	!	!	!	!LO:N:vis=16	!	!LO:N:vis=16	!
32r	.	32r	.	32r	.	.	.	.	.	.	.	.	.	.	.	.	.	32r	.	32r	.	32r	.	.	32r	.	32r	.	32r	.	.	.	32r	.	32r	.
32GG/JJk	.	32G\JJk	.	32G/JJk 32GG/	.	.	.	.	.	.	.	.	.	.	.	.	.	32a#\JJk 32g\	.	32cc#\JJk	.	32ccc#\JJk	.	.	32g\JJk	.	32c#\JJk 32A#\	.	32g/JJk 32G/	.	.	.	32aa#\JJk 32cc#\	.	32ccc#\JJk	.
8GG/L	.	8G\L	.	8G/L 8GG/	.	.	.	.	.	.	.	.	.	.	.	.	.	8a#\L 8g\	.	8ee\L 8cc#\	.	8eee\L	.	8ee/L 8g/	8g\L	.	8c#\L 8A#\	.	8g/L 8G/	.	.	.	8aa#\L 8ee'\	.	8eee\L	.
8GG/J	.	8G\J	.	8G/J 8GG/	.	.	.	.	.	.	.	.	.	.	.	.	.	8b\J 8g\	.	8dd\J	.	8ddd\J	.	8dd/J 8g/	8g\J	.	8d\J 8B\	.	8b/J 8g/	.	.	.	8bb\J 8dd'\	.	8ddd\J	.
*Xrep	*	*Xrep	*	*Xrep	*	*	*	*	*	*	*	*	*	*	*	*	*	*	*	*	*	*	*	*Xrep	*Xrep	*	*Xrep	*	*Xrep	*	*	*	*Xrep	*	*Xrep	*
=5	=5	=5	=5	=5	=5	=5	=5	=5	=5	=5	=5	=5	=5	=5	=5	=5	=5	=5	=5	=5	=5	=5	=5	=5	=5	=5	=5	=5	=5	=5	=5	=5	=5	=5	=5	=5
*	*	*tremolo	*	*	*	*	*	*	*	*	*	*	*	*	*	*	*	*tremolo	*	*tremolo	*	*	*	*	*	*	*	*	*	*	*	*	*	*	*	*
8D\L	.	8D\L	.	8D^<\L	.	4.ryy	.	.	4.ryy	.	.	4.ryy	.	.	4.ryy	.	.	16an\LL 16f#\	.	16ccn/LL 16d/	.	16ddd\LL	.	8r	8ryy	.	8A\ 8F#\	.	8a/ 8d/	.	8ff#\ 8cc\	.	8aa\ 8ccn\	.	16ddd\LL	.
!	!	!	!	!	!	!	!	!	!	!	!	!	!	!	!	!	!	!	!	!	!	!LO:N:vis=16	!	!	!	!	!	!	!	!	!	!	!	!	!LO:N:vis=16	!
.	.	.	.	.	.	.	.	.	.	.	.	.	.	.	.	.	.	16a\ 16f#\	.	16cc/ 16d/	.	32r	.	.	.	.	.	.	.	.	.	.	.	.	32r	.
.	.	.	.	.	.	.	.	.	.	.	.	.	.	.	.	.	.	.	.	.	.	32cccn\JJk	.	.	.	.	.	.	.	.	.	.	.	.	32cccn\JJk	.
*	*	*	*	*	*	*	*	*	*	*	*	*	*	*	*	*	*	*	*	*	*	*	*	*Xtuplet	*Xtuplet	*	*	*	*	*	*	*	*	*	*	*
8D\	.	8D\	.	8D^<\	.	.	.	.	.	.	.	.	.	.	.	.	.	16a\ 16f#\	.	16cc/ 16d/	.	4aa^<\	.	24dd/LL	24dd\LL	.	4c\ 4A^<\	.	4a/ 4d^/	.	4ff#\ 4cc^<\	.	4aa\ 4cc^<\	.	4aa^<\	.
.	.	.	.	.	.	.	.	.	.	.	.	.	.	.	.	.	.	.	.	.	.	.	.	24dd/	24dd\	.	.	.	.	.	.	.	.	.	.	.
.	.	.	.	.	.	.	.	.	.	.	.	.	.	.	.	.	.	16a\ 16f#\	.	16cc/ 16d/	.	.	.	.	.	.	.	.	.	.	.	.	.	.	.	.
.	.	.	.	.	.	.	.	.	.	.	.	.	.	.	.	.	.	.	.	.	.	.	.	24dd/JJ	24dd\JJ	.	.	.	.	.	.	.	.	.	.	.
8D\J	.	8D\J	.	8D^<\J	.	.	.	.	.	.	.	.	.	.	.	.	.	16a\ 16f#\	.	16cc/ 16d/	.	.	.	24dd/LL	24dd\LL	.	.	.	.	.	.	.	.	.	.	.
.	.	.	.	.	.	.	.	.	.	.	.	.	.	.	.	.	.	.	.	.	.	.	.	24dd/	24dd\	.	.	.	.	.	.	.	.	.	.	.
.	.	.	.	.	.	.	.	.	.	.	.	.	.	.	.	.	.	16a\JJ 16f#\	.	16cc/JJ 16d/	.	.	.	.	.	.	.	.	.	.	.	.	.	.	.	.
.	.	.	.	.	.	.	.	.	.	.	.	.	.	.	.	.	.	.	.	.	.	.	.	24dd/JJ	24dd\JJ	.	.	.	.	.	.	.	.	.	.	.
*	*	*Xtremolo	*	*	*	*	*	*	*	*	*	*	*	*	*	*	*	*	*	*	*	*	*	*	*	*	*	*	*	*	*	*	*	*	*	*
=6	=6	=6	=6	=6	=6	=6	=6	=6	=6	=6	=6	=6	=6	=6	=6	=6	=6	=6	=6	=6	=6	=6	=6	=6	=6	=6	=6	=6	=6	=6	=6	=6	=6	=6	=6	=6
*tremolo	*	*	*	*	*	*	*	*	*	*	*	*	*	*	*	*	*	*	*	*	*	*	*	*	*	*	*	*	*	*	*	*	*	*	*	*
!	!	!LO:TX:t=P:problem=mixed beam	!	!LO:TX:t=P:problem=mixed beam	!	!	!	!	!	!	!	!	!	!	!	!	!	!	!	!	!	!	!	!	!	!	!	!	!	!	!	!	!	!	!	!
8GG/L	.	8GG/L	.	8GG/L	.	4.ryy	.	.	4.ryy	.	.	4.ryy	.	.	4.ryy	.	.	16b\LL 16g\	.	16b/LL 16d/	.	16dd\LL	.	8dd/	8dd\	.	8B\ 8G\	.	8g/ 8B/	.	8dd\ 8b\	.	8dd\ 8b\	.	16dd\LL	.
!	!	!	!	!	!	!	!	!	!	!	!	!	!	!	!	!	!	!	!	!	!	!LO:N:vis=16	!	!	!	!	!	!	!	!	!	!	!	!	!LO:N:vis=16	!
.	.	.	.	.	.	.	.	.	.	.	.	.	.	.	.	.	.	16b\ 16g\	.	16b/ 16d/	.	32r	.	.	.	.	.	.	.	.	.	.	.	.	32r	.
.	.	.	.	.	.	.	.	.	.	.	.	.	.	.	.	.	.	.	.	.	.	32gg\JJk	.	.	.	.	.	.	.	.	.	.	.	.	32gg\JJk	.
8GG/	.	8G\	.	8G\	.	.	.	.	.	.	.	.	.	.	.	.	.	16b\ 16g\	.	16b/ 16d/	.	4bb^<\	.	24dd/LL	24dd\LL	.	4d\ 4B^<\	.	4b\ 4g^\	.	4gg\ 4b^<\	.	4bb\ 4gg^<\	.	4bb^<\	.
.	.	.	.	.	.	.	.	.	.	.	.	.	.	.	.	.	.	.	.	.	.	.	.	24dd/	24dd\	.	.	.	.	.	.	.	.	.	.	.
.	.	.	.	.	.	.	.	.	.	.	.	.	.	.	.	.	.	16b\ 16g\	.	16b/ 16d/	.	.	.	.	.	.	.	.	.	.	.	.	.	.	.	.
.	.	.	.	.	.	.	.	.	.	.	.	.	.	.	.	.	.	.	.	.	.	.	.	24dd/JJ	24dd\JJ	.	.	.	.	.	.	.	.	.	.	.
8GG/J	.	8G\J	.	8G\J	.	.	.	.	.	.	.	.	.	.	.	.	.	16b\ 16g\	.	16b/ 16d/	.	.	.	24dd/LL	24dd\LL	.	.	.	.	.	.	.	.	.	.	.
.	.	.	.	.	.	.	.	.	.	.	.	.	.	.	.	.	.	.	.	.	.	.	.	24dd/	24dd\	.	.	.	.	.	.	.	.	.	.	.
.	.	.	.	.	.	.	.	.	.	.	.	.	.	.	.	.	.	16b\JJ 16g\	.	16b/JJ 16d/	.	.	.	.	.	.	.	.	.	.	.	.	.	.	.	.
.	.	.	.	.	.	.	.	.	.	.	.	.	.	.	.	.	.	.	.	.	.	.	.	24dd/JJ	24dd\JJ	.	.	.	.	.	.	.	.	.	.	.
*Xtremolo	*	*	*	*	*	*	*	*	*	*	*	*	*	*	*	*	*	*Xtremolo	*	*Xtremolo	*	*	*	*	*	*	*	*	*	*	*	*	*	*	*	*
=7	=7	=7	=7	=7	=7	=7	=7	=7	=7	=7	=7	=7	=7	=7	=7	=7	=7	=7	=7	=7	=7	=7	=7	=7	=7	=7	=7	=7	=7	=7	=7	=7	=7	=7	=7	=7
16D\LL	.	16D\LL	.	16D\LL	.	4.ryy	.	.	4.ryy	.	.	4.ryy	.	.	4.ryy	.	.	16f#\LL	.	16a/LL	.	16aa\LL	.	16dd/LL	16dd\LL	.	16c\LL 16A\	.	16a\LL 16d\	.	16ff#\LL 16a\	.	16aa\LL 16ff#\	.	16aa'\LL	.
16D\	.	16D\	.	16d\	.	.	.	.	.	.	.	.	.	.	.	.	.	16g\	.	16b/	.	16bb\	.	16dd/	16dd\	.	16c\ 16A\	.	16a\ 16d\	.	16gg\ 16b\	.	16bb\ 16gg\	.	16bb'\	.
16D\	.	16D\	.	16D\	.	.	.	.	.	.	.	.	.	.	.	.	.	16a\	.	16cc/	.	16ccc\	.	16dd/	16dd\	.	16c\ 16A\	.	16a\ 16d\	.	16aa\ 16cc\	.	16ccc\ 16aa\	.	16ccc'\	.
16D\	.	16D\	.	16d\	.	.	.	.	.	.	.	.	.	.	.	.	.	16b\	.	16dd/	.	16ddd\	.	16dd/	16dd\	.	16c\ 16A\	.	16a\ 16d\	.	16bb\ 16dd\	.	16ddd\ 16bb\	.	16ddd'\	.
16D\	.	16D\	.	16D\	.	.	.	.	.	.	.	.	.	.	.	.	.	16cc\	.	16ee/	.	16eee\	.	16dd/	16dd\	.	16c\ 16A\	.	16a\ 16d\	.	16ccc\ 16ee\	.	16eee\ 16ccc\	.	16eee'\	.
16D\JJ	.	16D\JJ	.	16d\JJ	.	.	.	.	.	.	.	.	.	.	.	.	.	16a\JJ	.	16ff#/JJ	.	16fff#\JJ	.	16dd/JJ	16dd\JJ	.	16c\JJ 16A\	.	16a\JJ 16d\	.	16ff#\JJ 16cc\	.	16ff#\JJ 16cc'\	.	16fff#'\JJ	.
*	*	*	*	*	*	*	*	*	*	*	*	*	*	*	*	*	*	*	*	*	*	*	*	*v	*v	*	*	*	*	*	*	*	*	*	*	*
=8	=8	=8	=8	=8	=8	=8	=8	=8	=8	=8	=8	=8	=8	=8	=8	=8	=8	=8	=8	=8	=8	=8	=8	=8	=8	=8	=8	=8	=8	=8	=8	=8	=8	=8	=8
16GG/	.	16G\	.	16G\	.	8ryy	.	.	8ryy	.	.	8ryy	.	.	8ryy	.	.	16b\	.	16gg\	.	16ggg\	.	16g/	.	16B\ 16G\	.	16g/ 16B/	.	16gg\ 16b\	.	16gg\ 16b\	.	16ggg\	.
16r	.	16r	.	16r	.	.	.	.	.	.	.	.	.	.	.	.	.	16r	.	16r	.	16r	.	16r	.	16r	.	16r	.	16r	.	16r	.	16r	.
8GG^/	.	8GG^/	.	8G/ 8GG^/	.	8ryy	.	.	8ryy	.	.	8ryy	.	.	8ryy	.	.	8g\ 8G\	.	8gg\ 8b\ 8d\	.	8gg\ 8b\ 8d\	.	8g/ 8G/	.	8B\ 8G^<\	.	8g/ 8B^/	.	8gg\ 8b^<\	.	8gg\ 8b^<\	.	8ggg^<\	.
8r;	.	8r;	.	8r;	.	8r;yy	.	.	8r;yy	.	.	8r;yy	.	.	8r;yy	.	.	8r;	.	8r;	.	8r;	.	8r;	.	8r;	.	8r;	.	8r;	.	8r;	.	8r;	.
!LO:LB:g=original	!	!LO:LB:g=original	!	!	!	!	!	!	!	!	!	!	!	!	!	!	!	!	!	!	!	!	!	!	!	!	!	!	!	!	!	!	!	!	!
=9||	=9||	=9||	=9||	=9||	=9||	=9||	=9||	=9||	=9||	=9||	=9||	=9||	=9||	=9||	=9||	=9||	=9||	=9||	=9||	=9||	=9||	=9||	=9||	=9||	=9||	=9||	=9||	=9||	=9||	=9||	=9||	=9||	=9||	=9||	=9||
*	*	*	*	*tremolo	*	*	*	*	*	*	*	*	*	*	*	*	*	*	*	*	*	*	*	*	*	*	*	*	*	*	*	*	*	*	*
!LO:TX:a:t=8	!	!LO:TX:a:t=8	!	!	!LO:DY:rj	!	!	!	!	!	!	!	!	!	!LO:TX:a:t=Solo |&colon; moze spiewac Sopran albo Tenor &colon;|	!	!	!	!LO:DY:rj	!	!LO:DY:rj	!	!LO:DY:rj	!	!	!	!	!	!	!	!	!	!	!	!
4.r	.	4.r	.	8G\L	p	4.r	.	.	4.r	.	.	4.r	.	.	16g/	mos-	.	8d\L	p	8B/L	p	16g/LL	p	4.r	.	4.r	.	4.r	.	4.r	.	4.r	.	4.r	.
!	!	!	!	!	!	!	!	!	!	!	!	!	!	!	!	!	!	!	!	!	!	!LO:N:vis=16	!	!	!	!	!	!	!	!	!	!	!	!	!
.	.	.	.	.	.	.	.	.	.	.	.	.	.	.	16g/	-kal	.	.	.	.	.	32r	.	.	.	.	.	.	.	.	.	.	.	.	.
.	.	.	.	.	.	.	.	.	.	.	.	.	.	.	.	.	.	.	.	.	.	32g/JJk	.	.	.	.	.	.	.	.	.	.	.	.	.
.	.	.	.	8G\	.	.	.	.	.	.	.	.	.	.	8b/	chce	.	8d\	.	8B/	.	8b/L	.	.	.	.	.	.	.	.	.	.	.	.	.
.	.	.	.	8G\J	.	.	.	.	.	.	.	.	.	.	8dd/	do-	.	8d\J	.	8B/J	.	8dd/J	.	.	.	.	.	.	.	.	.	.	.	.	.
=10	=10	=10	=10	=10	=10	=10	=10	=10	=10	=10	=10	=10	=10	=10	=10	=10	=10	=10	=10	=10	=10	=10	=10	=10	=10	=10	=10	=10	=10	=10	=10	=10	=10	=10	=10
*	*	*	*	*rep	*	*	*	*	*	*	*	*	*	*	*	*	*	*	*	*	*	*	*	*	*	*	*	*	*	*	*	*	*	*	*
4.r	.	4.r	.	8G\L	.	4.ryy	.	.	4.ryy	.	.	4.ryy	.	.	16cc#X/	-stać	.	8c#X\L	.	8A#X/L	.	16cc#X\LL	.	4.r	.	4.r	.	4.r	.	4.r	.	4.r	.	4.r	.
!	!	!	!	!	!	!	!	!	!	!	!	!	!	!	!	!	!	!	!	!	!	!LO:N:vis=16	!	!	!	!	!	!	!	!	!	!	!	!	!
.	.	.	.	.	.	.	.	.	.	.	.	.	.	.	16cc#/	War-	.	.	.	.	.	32r	.	.	.	.	.	.	.	.	.	.	.	.	.
.	.	.	.	.	.	.	.	.	.	.	.	.	.	.	.	.	.	.	.	.	.	32cc#\JJk	.	.	.	.	.	.	.	.	.	.	.	.	.
.	.	.	.	8G\	.	.	.	.	.	.	.	.	.	.	8ee/	-sza-	.	8c#\	.	8A#/	.	8ee\L	.	.	.	.	.	.	.	.	.	.	.	.	.
.	.	.	.	8G\J	.	.	.	.	.	.	.	.	.	.	8dd/	-wy	.	8d\J	.	8B/J	.	8dd\J	.	.	.	.	.	.	.	.	.	.	.	.	.
*	*	*	*	*Xrep	*	*	*	*	*	*	*	*	*	*	*	*	*	*	*	*	*	*	*	*	*	*	*	*	*	*	*	*	*	*	*
=11	=11	=11	=11	=11	=11	=11	=11	=11	=11	=11	=11	=11	=11	=11	=11	=11	=11	=11	=11	=11	=11	=11	=11	=11	=11	=11	=11	=11	=11	=11	=11	=11	=11	=11	=11
*	*	*	*	*rep	*	*	*	*	*	*	*	*	*	*	*	*	*	*rep	*	*rep	*	*rep	*	*	*	*	*	*	*	*	*	*	*	*	*
!	!	!	!	!	!	!	!	!	!	!	!	!	!	!	!	!	!	!LO:TX:t=P:problem=znak powrtórzenia 2 taktów (na kresce taktowej)	!	!LO:TX:t=P:problem=znak powrtórzenia 2 taktów (na kresce taktowej)	!	!LO:TX:t=P:problem=znak powrtórzenia 2 taktów (na kresce taktowej)	!	!	!	!	!	!	!	!	!	!	!	!	!
4.r	.	4.r	.	8G\L	.	4.ryy	.	.	4.ryy	.	.	4.ryy	.	.	16g/	I	.	8d\L	.	8B/L	.	16g/LL	.	4.ryy	.	4.ryy	.	4.ryy	.	4.ryy	.	4.ryy	.	4.ryy	.
!	!	!	!	!	!	!	!	!	!	!	!	!	!	!	!	!	!	!	!	!	!	!LO:N:vis=16	!	!	!	!	!	!	!	!	!	!	!	!	!
.	.	.	.	.	.	.	.	.	.	.	.	.	.	.	16g/	za-	.	.	.	.	.	32r	.	.	.	.	.	.	.	.	.	.	.	.	.
.	.	.	.	.	.	.	.	.	.	.	.	.	.	.	.	.	.	.	.	.	.	32g/JJk	.	.	.	.	.	.	.	.	.	.	.	.	.
.	.	.	.	8G\	.	.	.	.	.	.	.	.	.	.	8b/	-gła-	.	8d\	.	8B/	.	8b/L	.	.	.	.	.	.	.	.	.	.	.	.	.
.	.	.	.	8G\J	.	.	.	.	.	.	.	.	.	.	8dd/	-dy	.	8d\J	.	8B/J	.	8dd/J	.	.	.	.	.	.	.	.	.	.	.	.	.
*	*	*	*	*Xrep	*	*	*	*	*	*	*	*	*	*	*	*	*	*	*	*	*	*	*	*	*	*	*	*	*	*	*	*	*	*	*
=12	=12	=12	=12	=12	=12	=12	=12	=12	=12	=12	=12	=12	=12	=12	=12	=12	=12	=12	=12	=12	=12	=12	=12	=12	=12	=12	=12	=12	=12	=12	=12	=12	=12	=12	=12
*	*	*	*	*rep	*	*	*	*	*	*	*	*	*	*	*	*	*	*	*	*	*	*	*	*	*	*	*	*	*	*	*	*	*	*	*
4.r	.	4.r	.	8G\L	.	4.ryy	.	.	4.ryy	.	.	4.ryy	.	.	16cc#X/	na-	.	8c#X\L	.	8A#X/L	.	16cc#X\LL	.	4.ryy	.	4.ryy	.	4.ryy	.	4.ryy	.	4.ryy	.	4.ryy	.
.	.	.	.	.	.	.	.	.	.	.	.	.	.	.	16cc#/	-szey	.	.	.	.	.	32r	.	.	.	.	.	.	.	.	.	.	.	.	.
.	.	.	.	.	.	.	.	.	.	.	.	.	.	.	.	.	.	.	.	.	.	32cc#\JJk	.	.	.	.	.	.	.	.	.	.	.	.	.
.	.	.	.	8G\	.	.	.	.	.	.	.	.	.	.	8ee/	spra-	.	8c#\	.	8A#/	.	8ee\L	.	.	.	.	.	.	.	.	.	.	.	.	.
.	.	.	.	8G\J	.	.	.	.	.	.	.	.	.	.	8dd/	-wy	.	8d\J	.	8B/J	.	8dd\J	.	.	.	.	.	.	.	.	.	.	.	.	.
*	*	*	*	*Xrep	*	*	*	*	*	*	*	*	*	*	*	*	*	*	*	*	*	*	*	*	*	*	*	*	*	*	*	*	*	*	*
*	*	*	*	*Xtremolo	*	*	*	*	*	*	*	*	*	*	*	*	*	*Xrep	*	*Xrep	*	*Xrep	*	*	*	*	*	*	*	*	*	*	*	*	*
!!LO:PB:g=original
=13	=13	=13	=13	=13	=13	=13	=13	=13	=13	=13	=13	=13	=13	=13	=13	=13	=13	=13	=13	=13	=13	=13	=13	=13	=13	=13	=13	=13	=13	=13	=13	=13	=13	=13	=13
4.r	.	4.r	.	8D/	.	4.r	.	.	4.r	.	.	4.r	.	.	16dd\	a-	.	8r	.	8r	.	16dd\LL	.	4.r	.	4.r	.	4.r	.	4.r	.	4.r	.	4.r	.
.	.	.	.	.	.	.	.	.	.	.	.	.	.	.	16ccn\	-le	.	.	.	.	.	32r	.	.	.	.	.	.	.	.	.	.	.	.	.
.	.	.	.	.	.	.	.	.	.	.	.	.	.	.	.	.	.	.	.	.	.	32ccn\JJk	.	.	.	.	.	.	.	.	.	.	.	.	.
.	.	.	.	8r	.	.	.	.	.	.	.	.	.	.	4a/	on	.	8d\L 8c\	.	8f#/L 8A/	.	4a/	.	.	.	.	.	.	.	.	.	.	.	.	.
.	.	.	.	8r	.	.	.	.	.	.	.	.	.	.	.	.	.	8d\J 8c\	.	8f#/J 8A/	.	.	.	.	.	.	.	.	.	.	.	.	.	.	.
=14	=14	=14	=14	=14	=14	=14	=14	=14	=14	=14	=14	=14	=14	=14	=14	=14	=14	=14	=14	=14	=14	=14	=14	=14	=14	=14	=14	=14	=14	=14	=14	=14	=14	=14	=14
4.r	.	4.r	.	8G\	.	4.ryy	.	.	4.ryy	.	.	4.ryy	.	.	16d/	znay-	.	8r	.	8r	.	16d/LL	.	4.ryy	.	4.ryy	.	4.ryy	.	4.ryy	.	4.ryy	.	4.ryy	.
.	.	.	.	.	.	.	.	.	.	.	.	.	.	.	16g/	-dzie	.	.	.	.	.	32r	.	.	.	.	.	.	.	.	.	.	.	.	.
.	.	.	.	.	.	.	.	.	.	.	.	.	.	.	.	.	.	.	.	.	.	32g/JJk	.	.	.	.	.	.	.	.	.	.	.	.	.
.	.	.	.	8r	.	.	.	.	.	.	.	.	.	.	4b/	zgon	.	8d\L 8B\	.	8g/L 8G/	.	4b/	.	.	.	.	.	.	.	.	.	.	.	.	.
.	.	.	.	8r	.	.	.	.	.	.	.	.	.	.	.	.	.	8d\J 8B\	.	8g/J 8G/	.	.	.	.	.	.	.	.	.	.	.	.	.	.	.
=15	=15	=15	=15	=15	=15	=15	=15	=15	=15	=15	=15	=15	=15	=15	=15	=15	=15	=15	=15	=15	=15	=15	=15	=15	=15	=15	=15	=15	=15	=15	=15	=15	=15	=15	=15
4.r	.	4.r	.	8D\	.	4.ryy	.	.	4.ryy	.	.	4.ryy	.	.	16a/	Tu	.	8r	.	8r	.	16a/LL	.	4.ryy	.	4.ryy	.	4.ryy	.	4.ryy	.	4.ryy	.	4.ryy	.
.	.	.	.	.	.	.	.	.	.	.	.	.	.	.	16cc/	swoy	.	.	.	.	.	32r	.	.	.	.	.	.	.	.	.	.	.	.	.
.	.	.	.	.	.	.	.	.	.	.	.	.	.	.	.	.	.	.	.	.	.	32cc/JJk	.	.	.	.	.	.	.	.	.	.	.	.	.
.	.	.	.	8r	.	.	.	.	.	.	.	.	.	.	8ee/	znaj-	.	8d\L 8c\	.	8f#/L 8A/	.	8ee/L	.	.	.	.	.	.	.	.	.	.	.	.	.
.	.	.	.	8D\	.	.	.	.	.	.	.	.	.	.	8dd/	-dzie	.	8d\J 8c\	.	8f#/J 8A/	.	8dd/J	.	.	.	.	.	.	.	.	.	.	.	.	.
=16	=16	=16	=16	=16	=16	=16	=16	=16	=16	=16	=16	=16	=16	=16	=16	=16	=16	=16	=16	=16	=16	=16	=16	=16	=16	=16	=16	=16	=16	=16	=16	=16	=16	=16	=16
!	!	!	!	!LO:TX:t=P:problem=mixed beam	!	!	!	!	!	!	!	!	!	!	!	!	!	!	!	!	!	!	!	!	!	!	!	!	!	!	!	!	!	!	!
4.r	.	4.r	.	8GG/L	.	4.ryy	.	.	4.ryy	.	.	4.ryy	.	.	4g/	zgon	.	4d\ 4B\	.	4g/ 4B/	.	(4g/	.	4.ryy	.	4.ryy	.	4.ryy	.	4.ryy	.	4.ryy	.	4.ryy	.
.	.	.	.	8G\J	.	.	.	.	.	.	.	.	.	.	.	.	.	.	.	.	.	.	.	.	.	.	.	.	.	.	.	.	.	.	.
.	.	.	.	8r	.	.	.	.	.	.	.	.	.	.	8r	.	.	8r	.	8r	.	8g#X/	.	.	.	.	.	.	.	.	.	.	.	.	.
=17||	=17||	=17||	=17||	=17||	=17||	=17||	=17||	=17||	=17||	=17||	=17||	=17||	=17||	=17||	=17||	=17||	=17||	=17||	=17||	=17||	=17||	=17||	=17||	=17||	=17||	=17||	=17||	=17||	=17||	=17||	=17||	=17||	=17||	=17||	=17||
*	*	*	*	*	*	*	*	*	*	*	*	*	*	*	*	*	*	*	*	*	*	*	*	*	*	*	*	*	*	*^	*	*	*	*	*
*	*	*	*	*	*	*	*	*	*	*	*	*	*	*	*	*	*	*tremolo	*	*	*	*	*	*	*	*	*	*	*	*	*	*	*	*	*	*
!	!	!LO:TX:a:t=12	!	!	!LO:DY:rj	!	!	!	!	!	!	!	!	!	!	!	!	!	!LO:DY:rj	!	!LO:DY:rj	!	!	!	!	!LO:S:s=2:note:problem=note-level slur	!LO:DY:rj	!	!	!	!	!LO:DY:rj	!	!	!	!
4.r	.	4.r	.	16D\LL	fp	4.ryy	.	.	4.ryy	.	.	4.ryy	.	.	16a/	Tyl-	.	16d\LL	fp	16f#'/LL	fp	16a/LL)	.	4.r	.	(>(>4.f#\ 4.d\	fp	4.r	.	[4.a/	4.r	fp	4.r	.	16a/LL	p
.	.	.	.	16r	.	.	.	.	.	.	.	.	.	.	16a/	-ko	.	16A\	.	16A'/	.	32r	.	.	.	.	.	.	.	.	.	.	.	.	32r	.
.	.	.	.	.	.	.	.	.	.	.	.	.	.	.	.	.	.	.	.	.	.	32a/JJk	.	.	.	.	.	.	.	.	.	.	.	.	32a/JJk	.
.	.	.	.	16F#\	.	.	.	.	.	.	.	.	.	.	8a/	żwa-	.	16d\	.	16f#'/	.	8a'/L	.	.	.	.	.	.	.	.	.	.	.	.	8a'/L	.
.	.	.	.	16r	.	.	.	.	.	.	.	.	.	.	.	.	.	16A\	.	16A'/	.	.	.	.	.	.	.	.	.	.	.	.	.	.	.	.
.	.	.	.	16D\JJ	.	.	.	.	.	.	.	.	.	.	8dd/	-wo	.	16d\	.	16f#'/	.	8dd'/J	.	.	.	.	.	.	.	.	.	.	.	.	8dd'/J	.
.	.	.	.	16r	.	.	.	.	.	.	.	.	.	.	.	.	.	16A\JJ	.	16A'/JJ	.	.	.	.	.	.	.	.	.	.	.	.	.	.	.	.
*	*	*	*	*	*	*	*	*	*	*	*	*	*	*	*	*	*	*Xtremolo	*	*	*	*	*	*	*	*	*	*	*	*	*	*	*	*	*	*
=18	=18	=18	=18	=18	=18	=18	=18	=18	=18	=18	=18	=18	=18	=18	=18	=18	=18	=18	=18	=18	=18	=18	=18	=18	=18	=18	=18	=18	=18	=18	=18	=18	=18	=18	=18	=18
!	!	!	!	!LO:TX:t=P:problem=mixed beam	!	!	!	!	!	!	!	!	!	!	!	!	!	!	!	!	!	!	!	!	!	!	!	!	!	!	!	!	!	!	!	!
4.r	.	4.r	.	16A\LL	.	4.ryy	.	.	4.ryy	.	.	4.ryy	.	.	16cc#X\	wszy-	.	16e\LL	.	16g/LL	.	16cc#X\LL	.	4.r	.	8g\ 8e\))	.	4.r	.	8a/L]	8r	.	4.r	.	16cc#X\LL	.
.	.	.	.	16r	.	.	.	.	.	.	.	.	.	.	16dd\	-scy	.	16A\	.	16A/	.	32r	.	.	.	.	.	.	.	.	.	.	.	.	32r	.
.	.	.	.	.	.	.	.	.	.	.	.	.	.	.	.	.	.	.	.	.	.	32dd\JJk	.	.	.	.	.	.	.	.	.	.	.	.	32dd\JJk	.
.	.	.	.	16AA/	.	.	.	.	.	.	.	.	.	.	8ee\	ra-	.	16c#X\	.	16g/	.	8ee'\L	.	.	.	8c#X\L 8A'\	.	.	.	8a/	8g\L	.	.	.	8ee'\L	.
.	.	.	.	16r	.	.	.	.	.	.	.	.	.	.	.	.	.	16A\	.	16A/	.	.	.	.	.	.	.	.	.	.	.	.	.	.	.	.
.	.	.	.	16D/JJ	.	.	.	.	.	.	.	.	.	.	8dd\	-zem	.	16d\	.	16f#/	.	8dd'\J	.	.	.	8d\J 8D'\	.	.	.	8a/J	8f#\J	.	.	.	8dd'\J	.
.	.	.	.	16r	.	.	.	.	.	.	.	.	.	.	.	.	.	16A\JJ	.	16A/JJ	.	.	.	.	.	.	.	.	.	.	.	.	.	.	.	.
=19	=19	=19	=19	=19	=19	=19	=19	=19	=19	=19	=19	=19	=19	=19	=19	=19	=19	=19	=19	=19	=19	=19	=19	=19	=19	=19	=19	=19	=19	=19	=19	=19	=19	=19	=19	=19
*	*	*	*	*	*	*	*	*	*	*	*	*	*	*	*	*	*	*rep	*	*	*	*	*	*	*	*	*	*	*	*	*	*	*	*	*	*
*	*	*	*	*rep	*	*	*	*	*	*	*	*	*	*	*	*	*	*tremolo	*	*	*	*	*	*	*	*	*	*	*	*	*	*	*	*	*	*
!	!	!	!	!LO:TX:t=P:problem=znak powrtórzenia 2 taktów (na kresce taktowej)	!	!	!	!	!	!	!	!	!	!	!	!	!	!LO:TX:t=P:problem=znak powrtórzenia 2 taktów (na kresce taktowej)	!	!LO:TX:t=P:problem=znak powrtórzenia 2 taktów (na kresce taktowej)	!	!	!	!	!	!	!	!	!	!	!	!	!	!	!	!
!	!	!	!	!	!	!	!	!	!	!	!	!	!	!	!	!	!	!	!	!	!	!	!	!	!	!LO:S:s=2:note:problem=note-level slur	!	!	!	!	!	!LO:DY:rj	!	!	!	!
4.r	.	4.r	.	16D\LL	fp	4.ryy	.	.	4.ryy	.	.	4.ryy	.	.	16a/	o-	.	16d\LL	fp	16f#/LL	fp	16a/LL	.	4.r	.	(>(>4.f#\ 4.d\	fp	4.r	.	[<4.a/	4.r	fp	4.r	.	16a/LL	.
.	.	.	.	16r	.	.	.	.	.	.	.	.	.	.	16a/	-de-	.	16A\	.	16A/	.	32r	.	.	.	.	.	.	.	.	.	.	.	.	32r	.
.	.	.	.	.	.	.	.	.	.	.	.	.	.	.	.	.	.	.	.	.	.	32a/JJk	.	.	.	.	.	.	.	.	.	.	.	.	32a/JJk	.
.	.	.	.	16F#\	.	.	.	.	.	.	.	.	.	.	8a/	-prze-	.	16d\	.	16f#/	.	8a/L	.	.	.	.	.	.	.	.	.	.	.	.	8a'/L	.
.	.	.	.	16r	.	.	.	.	.	.	.	.	.	.	.	.	.	16A\	.	16A/	.	.	.	.	.	.	.	.	.	.	.	.	.	.	.	.
.	.	.	.	16D\JJ	.	.	.	.	.	.	.	.	.	.	8dd/	-my	.	16d\	.	16f#/	.	8dd/J	.	.	.	.	.	.	.	.	.	.	.	.	8dd'/J	.
.	.	.	.	16r	.	.	.	.	.	.	.	.	.	.	.	.	.	16A\JJ	.	16A/JJ	.	.	.	.	.	.	.	.	.	.	.	.	.	.	.	.
*	*	*	*	*	*	*	*	*	*	*	*	*	*	*	*	*	*	*Xtremolo	*	*	*	*	*	*	*	*	*	*	*	*	*	*	*	*	*	*
=20	=20	=20	=20	=20	=20	=20	=20	=20	=20	=20	=20	=20	=20	=20	=20	=20	=20	=20	=20	=20	=20	=20	=20	=20	=20	=20	=20	=20	=20	=20	=20	=20	=20	=20	=20	=20
4.r	.	4.r	.	16A\LL	.	4.ryy	.	.	4.ryy	.	.	4.ryy	.	.	16cc#X/	go	.	16e\LL	.	16g/LL	.	16cc#X\LL	.	4.r	.	8g\ 8e\))	.	4.r	.	8a/L]	8r	.	4.r	.	16cc#X\LL	.
.	.	.	.	16r	.	.	.	.	.	.	.	.	.	.	16dd/	że-	.	16A\	.	16A/	.	32r	.	.	.	.	.	.	.	.	.	.	.	.	32r	.
.	.	.	.	.	.	.	.	.	.	.	.	.	.	.	.	.	.	.	.	.	.	32dd\JJk	.	.	.	.	.	.	.	.	.	.	.	.	32dd\JJk	.
.	.	.	.	16AA/	.	.	.	.	.	.	.	.	.	.	8ee/	-la-	.	16c#X\	.	16g/	.	8ee\L	.	.	.	8c#X\L 8A'\	.	.	.	8a/	8g\L	.	.	.	8ee'\L	.
!	!	!	!	!	!	!LO:TX:a:t=Baſso ſolo.	!	!	!LO:TX:a:t=Tenore ſolo 2do	!	!LO:TX:a:t=Tenore 1mo ſolo	!	!	!	!	!	!	!	!	!	!	!	!	!	!	!	!	!	!	!	!	!	!	!	!	!
.	.	.	.	16r	.	.	.	.	.	.	.	.	.	.	.	.	.	16A\	.	16A/	.	.	.	.	.	.	.	.	.	.	.	.	.	.	.	.
.	.	.	.	16D/JJ	.	.	.	.	.	.	.	.	.	.	8dd/	-zem	.	16d\	.	16f#/	.	8dd\J	.	.	.	8d\J 8D'\	.	.	.	8a/J	8f#\J	.	.	.	8dd'\J	.
.	.	.	.	16r	.	.	.	.	.	.	.	.	.	.	.	.	.	16A\JJ	.	16A/JJ	.	.	.	.	.	.	.	.	.	.	.	.	.	.	.	.
*	*	*	*	*	*	*	*	*	*	*	*	*	*	*	*	*	*	*	*	*	*	*	*	*	*	*	*	*	*	*v	*v	*	*	*	*	*
*	*	*	*	*Xrep	*	*	*	*	*	*	*	*clefC4	*	*	*	*	*	*Xrep	*	*	*	*	*	*	*	*	*	*	*	*	*	*	*	*	*
=21	=21	=21	=21	=21	=21	=21	=21	=21	=21	=21	=21	=21	=21	=21	=21	=21	=21	=21	=21	=21	=21	=21	=21	=21	=21	=21	=21	=21	=21	=21	=21	=21	=21	=21	=21
*	*	*	*	*^	*	*	*	*	*	*	*	*	*	*	*	*	*	*	*	*	*	*	*	*	*	*	*	*	*	*	*	*	*	*	*
*	*	*	*	*tremolo	*Xtremolo	*	*	*	*	*	*	*	*	*	*	*	*	*	*	*	*	*	*	*	*	*	*	*	*	*	*	*	*	*	*	*
!	!	!	!	!LO:TX:b:t=stacc	!	!LO:DY:rj	!	!	!	!	!	!	!	!	!	!	!	!	!	!	!	!	!LO:TX:a:i:t=stacc&colon;	!	!	!	!LO:DY:rj	!	!	!LO:DY:a:rj	!	!LO:DY:rj	!	!	!	!
4.r	.	4.r	.	16G/LL	16G\LL	p	16G\	Zgi-	.	16G/	Zgi-	.	16B\	Zgi-	.	16b/	Zgi-	.	16G/LL	.	16g/LL 16G/	.	16g/LL 16G/	.	4.ryy	.	(16B\LL 16G\	p	16g/LL 16G/	p	(16b/LL 16g/	p	4.r	.	4.r	.
.	.	.	.	16G/	16r	.	16G\	-nie	.	16A/	-nie	.	16c\	-nie	.	16ccn/	-nie	.	16r	.	16r	.	16r	.	.	.	16cn\JJ 16A\)	.	16r	.	16cc/JJ 16a/)	.	.	.	.	.
.	.	.	.	16G/	16G\	.	4G\	Wróg	.	4B/	Wróg	.	4d\	Wróg	.	4dd/	Wróg	.	16G/	.	16g/ 16G/	.	16g/ 16G/	.	.	.	4d\ 4B^<\	.	16g/ 16G/	.	4dd/ 4b^/	.	.	.	.	.
.	.	.	.	16G/	16r	.	.	.	.	.	.	.	.	.	.	.	.	.	16r	.	16r	.	16r	.	.	.	.	.	16r	.	.	.	.	.	.	.
.	.	.	.	16G/	16G\JJ	.	.	.	.	.	.	.	.	.	.	.	.	.	16G/JJ	.	16g/JJ 16G/	.	16g/JJ 16G/	.	.	.	.	.	16g/JJ 16G/	.	.	.	.	.	.	.
.	.	.	.	16G/JJ	16r	.	.	.	.	.	.	.	.	.	.	.	.	.	16r	.	16r	.	16r	.	.	.	.	.	16r	.	.	.	.	.	.	.
=22	=22	=22	=22	=22	=22	=22	=22	=22	=22	=22	=22	=22	=22	=22	=22	=22	=22	=22	=22	=22	=22	=22	=22	=22	=22	=22	=22	=22	=22	=22	=22	=22	=22	=22	=22	=22
*	*	*	*	*tremolo	*Xtremolo	*	*	*	*	*	*	*	*	*	*	*	*	*	*	*	*	*	*	*	*	*	*	*	*	*	*	*	*	*	*	*
*	*	*	*	*rep	*rep	*	*	*ij	*	*	*ij	*	*	*ij	*	*	*	*	*rep	*	*rep	*	*rep	*	*	*	*rep	*	*rep	*	*rep	*	*	*	*	*
4.r	.	4.r	.	16G/LL	16G\LL	.	16G\	Da-	.	16G/	Da-	.	16B\	Da-	.	16b/	Da-	.	16G/LL	.	16g/LL 16G/	.	16g/LL 16G/	.	4.ryy	.	(16B\LL 16G\	.	16g/LL 16G/	.	(16b/LL 16g/	.	4.r	.	4.r	.
.	.	.	.	16G/	16r	.	16G\	-li	.	16A/	-li	.	16c\	-li	.	16cc/	-li	.	16r	.	16r	.	16r	.	.	.	16cn\JJ 16A\)	.	16r	.	16cc/JJ 16a/)	.	.	.	.	.
.	.	.	.	16G/	16G\	.	4G\	bóg	.	4B/	bóg	.	4d\	bóg	.	4dd/	bóg	.	16G/	.	16g/ 16G/	.	16g/ 16G/	.	.	.	4d\ 4B^<\	.	16g/ 16G/	.	4dd/ 4b^/	.	.	.	.	.
.	.	.	.	16G/	16r	.	.	.	.	.	.	.	.	.	.	.	.	.	16r	.	16r	.	16r	.	.	.	.	.	16r	.	.	.	.	.	.	.
.	.	.	.	16G/	16G\JJ	.	.	.	.	.	.	.	.	.	.	.	.	.	16G/JJ	.	16g/JJ 16G/	.	16g/JJ 16G/	.	.	.	.	.	16g/JJ 16G/	.	.	.	.	.	.	.
.	.	.	.	16G/JJ	16r	.	.	.	.	.	.	.	.	.	.	.	.	.	16r	.	16r	.	16r	.	.	.	.	.	16r	.	.	.	.	.	.	.
*	*	*	*	*Xrep	*Xrep	*	*	*	*	*	*	*	*	*	*	*	*	*	*Xrep	*	*Xrep	*	*Xrep	*	*	*	*Xrep	*	*Xrep	*	*Xrep	*	*	*	*	*
=23	=23	=23	=23	=23	=23	=23	=23	=23	=23	=23	=23	=23	=23	=23	=23	=23	=23	=23	=23	=23	=23	=23	=23	=23	=23	=23	=23	=23	=23	=23	=23	=23	=23	=23	=23	=23
*	*	*	*	*tremolo	*Xtremolo	*	*	*	*	*	*	*	*	*	*	*	*	*	*	*	*	*	*	*	*	*	*	*	*	*	*	*	*	*	*	*
!	!	!	!	!	!	!LO:DY:rj	!	!	!	!	!	!	!	!	!	!	!	!	!	!LO:DY:rj	!	!LO:DY:rj	!	!LO:DY:rj	!	!	!	!	!	!	!	!	!	!LO:HP:a	!	!
!	!	!	!	!	!	!	!	!	!	!	!	!	!	!	!	!	!	!	!	!LO:HP:a	!	!LO:HP:a	!	!LO:HP:a	!	!	!	!LO:DY:rj	!	!LO:DY:rj	!	!LO:DY:rj	!	!LO:DY:rj	!	!
4.r	.	4.r	.	16G/LL	16G\LL	f >	8G\	Niech	.	8A#X/	Niech	.	8c#X\	Niech	.	8ee/	Niech	.	16A#X/	f >	16e/ 16c#X/	f >	16g/ 16G/	f >	4.ryy	.	8c#X\L 8A#X\	f >	8g/L 8G/	f	8cc#X/L 8a#X/	f >	8ee/L 8a#X/	f >	4.r	.
.	.	.	.	16G/	16r	.	.	.	.	.	.	.	.	.	.	.	.	.	16r	.	16r	.	16r	.	.	.	.	.	.	.	.	.	.	.	.	.
.	.	.	.	16G/	16G\	]	16G\	zy-	.	16A#/	zy-	.	16c#\	zy-	.	16ee/	zy-	.	16A#/LL	.	16e/LL 16c#/	.	16g/LL 16G/	.	.	.	16c#\L 16A#\	.	16g/L 16G/	.	16cc#/L 16a#/	.	16ee/L 16a#/	.	.	.
.	.	.	.	16G/	16r	.	16G\	-ie	.	16A#/	-ie	.	16c#\	-ie	.	16ee/	-ie	.	16A#/JJ	]	16e/JJ 16c#/	]	16g/JJ 16G/	.	.	.	16c#\J 16A#\	]	16g/J 16G/	.	16cc#/J 16a#/	]	16ee/J 16a#/	]	.	.
!	!	!	!	!	!	!	!	!	!	!	!	!	!	!	!	!	!	!	!LO:N:vis=8	!	!	!	!	!	!	!	!	!	!	!	!	!	!	!	!	!
.	.	.	.	16G/	16G\JJ	.	8G\	War-	.	8A#/	War-	.	8c#\	War-	.	8ee/	War-	.	16A#/	.	16e/ 16c#/	.	16g/ 16G/	]	.	.	8c#\J 8A#\	.	8g/J 8G/	.	8cc#/J 8a#/	.	8ee/J 8a#/	.	.	.
.	.	.	.	16G/JJ	16r	.	.	.	.	.	.	.	.	.	.	.	.	.	16r	.	16r	.	16r	.	.	.	.	.	.	.	.	.	.	.	.	.
=24	=24	=24	=24	=24	=24	=24	=24	=24	=24	=24	=24	=24	=24	=24	=24	=24	=24	=24	=24	=24	=24	=24	=24	=24	=24	=24	=24	=24	=24	=24	=24	=24	=24	=24	=24	=24
*	*	*	*	*	*	*	*	*	*	*	*	*	*	*	*	*^	*	*	*	*	*	*	*	*	*	*	*	*	*	*	*	*	*^	*	*	*
*	*	*	*	*tremolo	*Xtremolo	*	*	*	*	*	*	*	*	*	*	*	*	*	*	*	*	*	*	*	*	*	*	*	*	*	*	*	*	*	*	*	*	*
!	!	!	!	!	!	!LO:DY:rj	!	!	!	!	!	!	!	!	!	!	!	!	!	!	!LO:DY:rj	!	!LO:DY:rj	!	!LO:DY:rj	!	!	!	!LO:DY:rj	!	!LO:DY:rj	!LO:S:s=2:note:problem=note-level slur	!	!	!	!LO:DY:rj	!	!
4.r	.	4.r	.	16G/LL	16G\LL	p	4G\	-sza-	.	4B/	-sza-	.	4d\	-sza-	.	4dd/	4dd\	-sza-	.	16B/L	p	16d/ 16B/L	p	16g/LL 16G/	p	4.ryy	.	(4d\ 4B\	p	16g/LL 16G/	p	((>4dd/ 4b/	p	[4.dd/	4b\	p	4.r	.
.	.	.	.	16G/	16r	.	.	.	.	.	.	.	.	.	.	.	.	.	.	16r	.	16r	.	16r	.	.	.	.	.	16r	.	.	.	.	.	.	.	.
.	.	.	.	16G/	16G\	.	.	.	.	.	.	.	.	.	.	.	.	.	.	16G/	.	16d/ 16B/	.	16g/ 16G/	.	.	.	.	.	16g/ 16G/	.	.	.	.	.	.	.	.
.	.	.	.	16G/	16r	.	.	.	.	.	.	.	.	.	.	.	.	.	.	16r	.	16r	.	16r	.	.	.	.	.	16r	.	.	.	.	.	.	.	.
.	.	.	.	16G/	16G\JJ	.	8G\	-wa	.	8G/	-wa	.	8B\	-wa	.	8dd/	8dd\	-wa	.	16B/J	.	16d/ 16B/J	.	16g/JJ 16G/	.	.	.	8B\ 8G\)	.	16g/JJ 16G/	.	8b/ 8g/))	.	.	8r	.	.	.
.	.	.	.	16G/JJ	16r	.	.	.	.	.	.	.	.	.	.	.	.	.	.	16ryy	.	16r	.	16r	.	.	.	.	.	16r	.	.	.	.	.	.	.	.
*	*	*	*	*	*	*	*	*	*	*	*	*	*	*	*	*v	*v	*	*	*	*	*	*	*	*	*	*	*	*	*	*	*	*	*	*	*	*	*
!!LO:PB:g=original
=25	=25	=25	=25	=25	=25	=25	=25	=25	=25	=25	=25	=25	=25	=25	=25	=25	=25	=25	=25	=25	=25	=25	=25	=25	=25	=25	=25	=25	=25	=25	=25	=25	=25	=25	=25	=25	=25
*	*	*	*	*tremolo	*Xtremolo	*	*	*	*	*	*	*	*	*	*	*	*	*	*	*	*	*	*	*	*	*	*	*	*	*	*	*	*	*	*	*	*
!	!	!	!	!	!	!	!	!	!	!	!	!	!	!	!	!	!	!	!	!	!	!	!	!	!	!	!	!	!	!	!	!	!	!	!LO:DY:a:rj	!	!
4.r	.	4.r	.	16D/LL	16D\LL	.	16D/	Zgi-	.	16F#/	Zgi-	.	16A\	Zgi-	.	16dd\	Zgi-	.	16F#/LL	.	16d/LL 16A/	.	16dd/LL 16d/	.	4.r	.	(16A\LL 16F#\	.	16d/LL 16D/	.	(16a/LL 16f#/	.	4.ddTT/]	4.r	p	4.r	.
.	.	.	.	16D/	16r	.	16D/	-nie	.	16G/	-nie	.	16B\	-nie	.	16dd\	-nie	.	16r	.	16r	.	16r	.	.	.	16B\JJ 16G\)	.	16r	.	16b/JJ 16g/	.	.	.	.	.	.
.	.	.	.	16D/	16D\	.	4D/	Wróg	.	4A/	Wróg	.	4c\	Wróg	.	4dd\	Wróg	.	16A/	.	16d/ 16c/	.	16dd/ 16d/	.	.	.	4^<c\ 4A\	.	16d/ 16D/	.	4cc/ 4a^/)	.	.	.	.	.	.
.	.	.	.	16D/	16r	.	.	.	.	.	.	.	.	.	.	.	.	.	16r	.	16r	.	16r	.	.	.	.	.	16r	.	.	.	.	.	.	.	.
.	.	.	.	16D/	16D\JJ	.	.	.	.	.	.	.	.	.	.	.	.	.	16A/JJ	.	16d/JJ 16c/	.	16dd/JJ 16d/	.	.	.	.	.	16d/JJ 16D/	.	.	.	.	.	.	.	.
.	.	.	.	16D/JJ	16r	.	.	.	.	.	.	.	.	.	.	.	.	.	16r	.	16r	.	16r	.	.	.	.	.	16r	.	.	.	.	.	.	.	.
=26	=26	=26	=26	=26	=26	=26	=26	=26	=26	=26	=26	=26	=26	=26	=26	=26	=26	=26	=26	=26	=26	=26	=26	=26	=26	=26	=26	=26	=26	=26	=26	=26	=26	=26	=26	=26	=26
*	*	*	*	*rep	*rep	*	*	*	*	*	*	*	*	*	*	*	*	*	*	*	*	*	*	*	*	*	*	*	*	*	*	*	*	*	*	*	*
*	*	*	*	*tremolo	*Xtremolo	*	*	*	*	*	*	*	*	*	*	*	*	*	*rep	*	*rep	*	*rep	*	*	*	*rep	*	*rep	*	*rep	*	*	*	*	*	*
4.r	.	4.r	.	16D/LL	16D\LL	.	16D/	da-	.	16F#/	da-	.	16A\	da-	.	16dd\	da-	.	16F#/LL	.	16d/LL 16A/	.	16dd/LL 16d/	.	4.r	.	(16A\LL 16F#\	.	16d/LL 16D/	.	(16a/LL 16f#/	.	4.ddTTT/	4.r	.	4.r	.
.	.	.	.	16D/	16r	.	16D/	-li-	.	16G/	-li-	.	16B\	-li-	.	16dd\	-li-	.	16r	.	16r	.	16r	.	.	.	16B\JJ 16G\)	.	16r	.	16b/JJ 16g/	.	.	.	.	.	.
.	.	.	.	16D/	16D\	.	4D/	-bóg	.	4A/	-bóg	.	4c\	-bóg	.	4dd\	-bóg	.	16A/	.	16d/ 16c/	.	16dd/ 16d/	.	.	.	4c\^< 4A\	.	16d/ 16D/	.	4cc/ 4a^/)	.	.	.	.	.	.
.	.	.	.	16D/	16r	.	.	.	.	.	.	.	.	.	.	.	.	.	16r	.	16r	.	16r	.	.	.	.	.	16r	.	.	.	.	.	.	.	.
.	.	.	.	16D/	16D\JJ	.	.	.	.	.	.	.	.	.	.	.	.	.	16A/JJ	.	16d/JJ 16c/	.	16dd/JJ 16d/	.	.	.	.	.	16d/JJ 16D/	.	.	.	.	.	.	.	.
.	.	.	.	16D/JJ	16r	.	.	.	.	.	.	.	.	.	.	.	.	.	16r	.	16r	.	16r	.	.	.	.	.	16r	.	.	.	.	.	.	.	.
*	*	*	*	*Xrep	*Xrep	*	*	*	*	*	*	*	*	*	*	*	*	*	*Xrep	*	*Xrep	*	*Xrep	*	*	*	*Xrep	*	*Xrep	*	*Xrep	*	*	*	*	*	*
=27	=27	=27	=27	=27	=27	=27	=27	=27	=27	=27	=27	=27	=27	=27	=27	=27	=27	=27	=27	=27	=27	=27	=27	=27	=27	=27	=27	=27	=27	=27	=27	=27	=27	=27	=27	=27	=27
*	*	*	*	*rep	*rep	*	*	*	*	*	*	*	*	*	*	*	*	*	*	*	*	*	*	*	*	*	*	*	*	*	*	*	*	*	*	*	*
*	*	*	*	*tremolo	*Xtremolo	*	*	*	*	*	*	*	*	*	*	*	*	*	*	*	*	*	*	*	*	*	*	*	*	*	*	*	*	*	*	*	*
4.r	.	4.r	.	16D/LL	16D\LL	.	16.D/	Naſ	.	16.F#/	Naſ	.	16.c\	Naſ	.	16.dd\	Naſ	.	16F#/LL	.	16d/LL 16c/	.	16d/LL	.	4.r	.	16A\LL 16D\	.	16d/LL 16D/	.	16dd/LL 16f#/	.	16dd/LL	4.r	.	4.r	.
!	!	!	!	!	!	!	!	!	!	!	!	!	!	!	!	!	!	!	!LO:N:vis=16	!	!LO:N:vis=16	!	!LO:N:vis=16	!	!	!	!LO:N:vis=16	!	!LO:N:vis=16	!	!LO:N:vis=16	!	!LO:N:vis=16	!	!	!	!
.	.	.	.	16D/	16r	.	.	.	.	.	.	.	.	.	.	.	.	.	32r	.	32r	.	32r	.	.	.	32r	.	32r	.	32r	.	32r	.	.	.	.
.	.	.	.	.	.	.	32D/	u-	.	32F#/	u-	.	32c\	u-	.	32dd\	u-	.	32F#/JJk	.	32d/JJk 32c/	.	32dd/JJk	.	.	.	32A\JJk 32D\	.	32d/JJk 32D/	.	32dd/JJk 32f#/	.	32dd/JJk	.	.	.	.
.	.	.	.	16D/	16D\	.	8D/	-wień-	.	8G/	-wień-	.	8c\	-wień-	.	8ee\	-wień-	.	8G/L	.	8e/L 8c/	.	8ee/L	.	.	.	8A\L 8D\	.	8d/L 8D/	.	8cc/L 8g/	.	8ee/L	.	.	.	.
.	.	.	.	16D/	16r	.	.	.	.	.	.	.	.	.	.	.	.	.	.	.	.	.	.	.	.	.	.	.	.	.	.	.	.	.	.	.	.
.	.	.	.	16D/	16D\JJ	.	8D/	-czy	.	8A/	-czy	.	8c\	-czy	.	8ff#\	-czy	.	8A/J	.	8f#/J 8c/	.	8ff#/J	.	.	.	8A\J 8D\	.	8d/J 8D/	.	8cc/J 8a/	.	8ff#/J	.	.	.	.
.	.	.	.	16D/JJ	16r	.	.	.	.	.	.	.	.	.	.	.	.	.	.	.	.	.	.	.	.	.	.	.	.	.	.	.	.	.	.	.	.
*	*	*	*	*Xtremolo	*	*	*	*	*	*	*	*	*	*	*	*	*	*	*	*	*	*	*	*	*	*	*	*	*	*	*	*	*	*	*	*	*
*	*	*	*	*Xrep	*Xrep	*	*	*	*	*	*	*	*	*	*	*	*	*	*	*	*	*	*	*	*	*	*	*	*	*	*	*	*	*	*	*	*
*	*	*	*	*v	*v	*	*	*	*	*	*	*	*	*	*	*	*	*	*	*	*	*	*	*	*	*	*	*	*	*	*	*	*	*	*	*	*
=28	=28	=28	=28	=28	=28	=28	=28	=28	=28	=28	=28	=28	=28	=28	=28	=28	=28	=28	=28	=28	=28	=28	=28	=28	=28	=28	=28	=28	=28	=28	=28	=28	=28	=28	=28	=28
!	!	!	!	!LO:TX:t=P:problem=mixed beam	!	!	!	!	!	!	!	!	!	!	!	!	!	!	!	!	!	!	!	!	!	!	!	!	!	!	!	!	!	!	!	!
4.r	.	4.r	.	16GG/LL	.	4G\	Sła-	.	4G/	Sła-	.	4B\	Sła-	.	4gg\	Sła-	.	4G/	.	4g/ 4B/	.	8.ggM\L	.	4.r	.	4B\ 4G\	.	4d/ 4G/	.	4b/ 4g/	.	4gg\	4.r	.	4.r	.
.	.	.	.	16r	.	.	.	.	.	.	.	.	.	.	.	.	.	.	.	.	.	.	.	.	.	.	.	.	.	.	.	.	.	.	.	.
.	.	.	.	16G\JJ	.	.	.	.	.	.	.	.	.	.	.	.	.	.	.	.	.	.	.	.	.	.	.	.	.	.	.	.	.	.	.	.
.	.	.	.	16r	.	.	.	.	.	.	.	.	.	.	.	.	.	.	.	.	.	16ff#'\L	<	.	.	.	.	.	.	.	.	.	.	.	.	.
.	.	.	.	8r	.	8G\	-wa	.	8G/	-wa	.	8B\	-wa	.	8gg\	-wa	.	8r	.	8r	.	16gg'\	.	.	.	8r	.	8r	.	8r	.	8rgg	.	.	.	.
.	.	.	.	.	.	.	.	.	.	.	.	.	.	.	.	.	.	.	.	.	.	16aa'\JJ	[[	.	.	.	.	.	.	.	.	.	.	.	.	.
*	*	*	*	*	*	*	*	*	*	*	*	*	*	*	*	*	*	*	*	*	*	*	*	*	*	*	*	*	*	*	*	*v	*v	*	*	*
*	*	*	*	*	*	*	*	*	*	*	*	*clefC3	*	*	*	*	*	*	*	*	*	*	*	*	*	*	*	*	*	*	*	*	*	*	*
=29	=29	=29	=29	=29	=29	=29	=29	=29	=29	=29	=29	=29	=29	=29	=29	=29	=29	=29	=29	=29	=29	=29	=29	=29	=29	=29	=29	=29	=29	=29	=29	=29	=29	=29	=29
*	*	*	*	*	*	*	*	*	*	*	*	*	*	*	*	*	*	*tremolo	*	*	*	*	*	*	*	*	*	*	*	*	*	*	*	*	*
!	!	!	!	!	!LO:DY:rj	!LO:TX:a:i:t=Baſsi	!	!LO:DY:rj	!LO:TX:a:i:t=Tenori	!	!LO:DY:rj	!LO:TX:a:i:t=alti	!	!LO:DY:rj	!LO:TX:a:i:t=Soprani	!	!LO:DY:rj	!	!LO:DY:rj:a	!	!LO:DY:rj	!	!LO:DY:rj	!	!LO:DY:rj	!	!LO:DY:rj	!	!LO:DY:rj	!	!LO:DY:rj	!	!LO:DY:rj	!	!LO:DY:rj
8GG/L	f	8G\L	f	8G\L 8GG^<\	f	16G\	zgi-	f	16A\ 16F#\	zgi-	f	16g\	zgi-	f	16b/ 16g/	zgi-	f	16g/LL 16G/	f	16gg'\LL	f	16bb'\LL	f	8..g/L	f	16B\LL 16G\	f	8g/ 8G/	f	16b/LL 16g/	f	16gg\LL 16b\	f	(32gg\LLL	f
.	.	.	.	.	.	.	.	.	.	.	.	.	.	.	.	.	.	.	.	.	.	.	.	.	.	.	.	.	.	.	.	.	.	32ff#\	.
.	.	.	.	.	.	16G\	-nie	.	16B\ 16G\	-nie	.	16g\	-nie	.	16cc/ 16a/	-nie	.	16g/ 16G/	.	16aa'\JJ	.	16ccc'\JJ	.	.	.	16c\JJ 16A\	.	.	.	16cc/JJ 16a/	.	16aa\JJ 16cc\	.	32gg\	.
.	.	.	.	.	.	.	.	.	.	.	.	.	.	.	.	.	.	.	.	.	.	.	.	.	.	.	.	.	.	.	.	.	.	32ff#\JJJ	.
*	*	*	*	*	*	*	*	*	*	*	*	*	*	*	*	*	*	*	*	*	*	*	*	*	*	*	*	*	*	*	*	*	*	*rep	*
8GG/	.	8G\	.	8G\ 8GG^<\	.	4G\	Wróg	.	4c\ 4A\	Wróg	.	4g\	Wróg	.	4dd/ 4b/	Wróg	.	16g/ 16G/	.	4bb\	.	4ddd\	.	.	.	4d\ 4B^<\	.	4g/ 4G^/	.	4dd\ 4b^<\	.	4bb\ 4dd^<\	.	32gg\LLL	.
.	.	.	.	.	.	.	.	.	.	.	.	.	.	.	.	.	.	.	.	.	.	.	.	.	.	.	.	.	.	.	.	.	.	32ff#\	.
.	.	.	.	.	.	.	.	.	.	.	.	.	.	.	.	.	.	16g/ 16G/	.	.	.	.	.	.	.	.	.	.	.	.	.	.	.	32gg\	.
.	.	.	.	.	.	.	.	.	.	.	.	.	.	.	.	.	.	.	.	.	.	.	.	32g/KL	.	.	.	.	.	.	.	.	.	32ff#\JJJ	.
*	*	*	*	*	*	*	*	*	*	*	*	*	*	*	*	*	*	*	*	*	*	*	*	*	*	*	*	*	*	*	*	*	*	*Xrep	*
*	*	*	*	*	*	*	*	*	*	*	*	*	*	*	*	*	*	*	*	*	*	*	*	*	*	*	*	*	*	*	*	*	*	*rep	*
8GG/J	.	8G\J	.	8G\J 8GG^<\	.	.	.	.	.	.	.	.	.	.	.	.	.	16g/ 16G/	.	.	.	.	.	16.g/	.	.	.	.	.	.	.	.	.	32gg\LLL	.
.	.	.	.	.	.	.	.	.	.	.	.	.	.	.	.	.	.	.	.	.	.	.	.	.	.	.	.	.	.	.	.	.	.	32ff#\	.
.	.	.	.	.	.	.	.	.	.	.	.	.	.	.	.	.	.	16g/JJ 16G/	.	.	.	.	.	.	.	.	.	.	.	.	.	.	.	32gg\	.
.	.	.	.	.	.	.	.	.	.	.	.	.	.	.	.	.	.	.	.	.	.	.	.	32g/JJk	.	.	.	.	.	.	.	.	.	32ff#\JJJ)	.
*	*	*	*	*	*	*	*	*	*	*	*	*	*	*	*	*	*	*	*	*	*	*	*	*	*	*	*	*	*	*	*	*	*	*Xrep	*
=30	=30	=30	=30	=30	=30	=30	=30	=30	=30	=30	=30	=30	=30	=30	=30	=30	=30	=30	=30	=30	=30	=30	=30	=30	=30	=30	=30	=30	=30	=30	=30	=30	=30	=30	=30
*rep	*	*rep	*	*rep	*	*	*	*	*	*	*	*	*	*	*	*	*	*rep	*	*rep	*	*rep	*	*rep	*	*rep	*	*rep	*	*rep	*	*rep	*	*rep	*
8GG/L	.	8G\L	.	8G\L 8GG^<\	.	16G\	da-	.	16B\ 16G\	da-	.	16g\	da-	.	16b/ 16g/	da-	.	16g/LL 16G/	.	16gg'\LL	.	16bb'\LL	.	8..g/L	.	16B\LL 16G\	.	8g/ 8G/	.	16b/LL 16g/	.	16gg\LL 16b\	.	(32gg\LLL	.
.	.	.	.	.	.	.	.	.	.	.	.	.	.	.	.	.	.	.	.	.	.	.	.	.	.	.	.	.	.	.	.	.	.	32ff#\	.
.	.	.	.	.	.	16G\	-li-	.	16c\ 16A\	-li-	.	16g\	-li-	.	16cc/ 16a/	-li-	.	16g/ 16G/	.	16aa'\JJ	.	16ccc'\JJ	.	.	.	16c\JJ 16A\	.	.	.	16cc/JJ 16a/	.	16aa\JJ 16cc\	.	32gg\	.
.	.	.	.	.	.	.	.	.	.	.	.	.	.	.	.	.	.	.	.	.	.	.	.	.	.	.	.	.	.	.	.	.	.	32ff#\JJJ	.
8GG/	.	8G\	.	8G\ 8GG^<\	.	4G\	-bóg	.	4d\ 4B\	-bóg	.	4g\	-bóg	.	4dd/ 4b/	-bóg	.	16g/ 16G/	.	4bb\	.	4ddd\	.	.	.	4d\ 4B^<\	.	4g/ 4G^/	.	4dd\ 4b^<\	.	4bb\ 4dd^<\	.	32gg\LLL	.
.	.	.	.	.	.	.	.	.	.	.	.	.	.	.	.	.	.	.	.	.	.	.	.	.	.	.	.	.	.	.	.	.	.	32ff#\	.
.	.	.	.	.	.	.	.	.	.	.	.	.	.	.	.	.	.	16g/ 16G/	.	.	.	.	.	.	.	.	.	.	.	.	.	.	.	32gg\	.
.	.	.	.	.	.	.	.	.	.	.	.	.	.	.	.	.	.	.	.	.	.	.	.	32g/KL	.	.	.	.	.	.	.	.	.	32ff#\JJJ	.
8GG/J	.	8G\J	.	8G\J 8GG^<\	.	.	.	.	.	.	.	.	.	.	.	.	.	16g/ 16G/	.	.	.	.	.	16.g/	.	.	.	.	.	.	.	.	.	32gg\LLL	.
.	.	.	.	.	.	.	.	.	.	.	.	.	.	.	.	.	.	.	.	.	.	.	.	.	.	.	.	.	.	.	.	.	.	32ff#\	.
.	.	.	.	.	.	.	.	.	.	.	.	.	.	.	.	.	.	16g/JJ 16G/	.	.	.	.	.	.	.	.	.	.	.	.	.	.	.	32gg\	.
.	.	.	.	.	.	.	.	.	.	.	.	.	.	.	.	.	.	.	.	.	.	.	.	32g/JJk	.	.	.	.	.	.	.	.	.	32ff#\JJJ)	.
*Xrep	*	*Xrep	*	*Xrep	*	*	*	*	*	*	*	*	*	*	*	*	*	*Xrep	*	*Xrep	*	*Xrep	*	*Xrep	*	*Xrep	*	*Xrep	*	*Xrep	*	*Xrep	*	*Xrep	*
=31	=31	=31	=31	=31	=31	=31	=31	=31	=31	=31	=31	=31	=31	=31	=31	=31	=31	=31	=31	=31	=31	=31	=31	=31	=31	=31	=31	=31	=31	=31	=31	=31	=31	=31	=31
*rep	*	*rep	*	*rep	*	*	*	*	*	*	*	*	*	*	*	*	*	*rep	*	*	*	*	*	*	*	*	*	*	*	*	*	*	*	*rep	*
8GG/L	.	8G\L	.	8G\L 8GG^<\	.	8G\	niech	.	8e\ 8c#X\ 8A#X\	niech	.	8g\	niech	.	8ee/ 8cc#X/ 8a#X/	niech	.	16g/LL 16G/	.	8aa#X\L 8cc#X\	.	8eee\L	.	8g/L 8e/	.	8c#X\L 8A#X\	.	8g/L 8G/	.	8cc#X/L 8a#X/	.	8aa#X\L 8ee\	.	(32gg\LLL	.
.	.	.	.	.	.	.	.	.	.	.	.	.	.	.	.	.	.	.	.	.	.	.	.	.	.	.	.	.	.	.	.	.	.	32ff#\	.
.	.	.	.	.	.	.	.	.	.	.	.	.	.	.	.	.	.	16g/ 16G/	.	.	.	.	.	.	.	.	.	.	.	.	.	.	.	32gg\	.
.	.	.	.	.	.	.	.	.	.	.	.	.	.	.	.	.	.	.	.	.	.	.	.	.	.	.	.	.	.	.	.	.	.	32ff#\JJJ	.
8GG/	.	8G\	.	8G\ 8GG^<\	.	16G\	zy-	.	16e\ 16c#\ 16A#\	zy-	.	16g\	zy-	.	16ee/ 16cc#/ 16a#/	zy-	.	16g/ 16G/	.	16aa#\L 16cc#\	.	16eee\L	.	16g/L 16e/	.	16c#\L 16A#\	.	16g/L 16G/	.	16cc#/L 16a#/	.	16aa#\L 16ee\	.	32gg\LLL	.
.	.	.	.	.	.	.	.	.	.	.	.	.	.	.	.	.	.	.	.	.	.	.	.	.	.	.	.	.	.	.	.	.	.	32ff#\	.
.	.	.	.	.	.	16G\	-ie	.	16e\ 16c#\ 16A#\	-ie	.	16g\	-ie	.	16ee/ 16cc#/ 16a#/	-ie	.	16g/ 16G/	.	16aa#\J 16cc#\	.	16eee\J	.	16g/J 16e/	.	16c#\J 16A#\	.	16g/J 16G/	.	16cc#/J 16a#/	.	16aa#\J 16ee\	.	32gg\	.
.	.	.	.	.	.	.	.	.	.	.	.	.	.	.	.	.	.	.	.	.	.	.	.	.	.	.	.	.	.	.	.	.	.	32ff#\JJJ	.
8GG/J	.	8G\J	.	8G\J 8GG^<\	.	8G\	War-	.	8e\ 8c#\ 8A#\	War-	.	8g\	War-	.	8ee/ 8cc#/ 8a#/	War-	.	16g/ 16G/	.	8aa#\J 8cc#\	.	8eee\J	.	8g/J 8e/	.	8c#\J 8A#\	.	8g/J 8G/	.	8cc#/J 8a#/	.	8aa#\J 8ee\	.	32gg\LLL	.
.	.	.	.	.	.	.	.	.	.	.	.	.	.	.	.	.	.	.	.	.	.	.	.	.	.	.	.	.	.	.	.	.	.	32ff#\	.
.	.	.	.	.	.	.	.	.	.	.	.	.	.	.	.	.	.	16g/JJ 16G/	.	.	.	.	.	.	.	.	.	.	.	.	.	.	.	32gg\	.
.	.	.	.	.	.	.	.	.	.	.	.	.	.	.	.	.	.	.	.	.	.	.	.	.	.	.	.	.	.	.	.	.	.	32ff#\JJJ)	.
*Xrep	*	*Xrep	*	*Xrep	*	*	*	*	*	*	*	*	*	*	*	*	*	*Xrep	*	*	*	*	*	*	*	*	*	*	*	*	*	*	*	*Xrep	*
=32	=32	=32	=32	=32	=32	=32	=32	=32	=32	=32	=32	=32	=32	=32	=32	=32	=32	=32	=32	=32	=32	=32	=32	=32	=32	=32	=32	=32	=32	=32	=32	=32	=32	=32	=32
*	*	*	*	*	*	*	*	*	*	*	*	*	*	*	*	*	*	*	*	*	*	*	*	*^	*	*	*	*	*	*	*	*	*	*	*
*rep	*	*rep	*	*rep	*	*	*	*	*	*	*	*	*	*	*	*	*	*rep	*	*	*	*	*	*	*	*	*	*	*	*	*	*	*	*	*	*
8GG/L	.	8G\L	.	8G\L 8GG^<\	.	4G\	-sza-	.	4d\ 4B\	-sza-	.	4g\	-sza-	.	4dd/ 4b/	-sza-	.	16g/LL 16G/	.	4bb\ 4dd\	.	4ddd\	.	8g/L	8g\L	.	4d\ 4B\	.	8g/L 8G/	.	4dd/ 4b/	.	4bb\ 4dd\	.	(32gg\LLL	.
.	.	.	.	.	.	.	.	.	.	.	.	.	.	.	.	.	.	.	.	.	.	.	.	.	.	.	.	.	.	.	.	.	.	.	32ff#\	.
.	.	.	.	.	.	.	.	.	.	.	.	.	.	.	.	.	.	16g/ 16G/	.	.	.	.	.	.	.	.	.	.	.	.	.	.	.	.	32gg\	.
.	.	.	.	.	.	.	.	.	.	.	.	.	.	.	.	.	.	.	.	.	.	.	.	.	.	.	.	.	.	.	.	.	.	.	32ff#\JJJ	.
*	*	*	*	*	*	*	*	*	*	*	*	*	*	*	*	*	*	*	*	*	*	*	*	*	*	*	*	*	*	*	*	*	*	*	*rep	*
8GG/	.	8G\	.	8G\ 8GG^<\	.	.	.	.	.	.	.	.	.	.	.	.	.	16g/ 16G/	.	.	.	.	.	8g/	8g\	.	.	.	8g/ 8G/	.	.	.	.	.	32gg\LLL	.
.	.	.	.	.	.	.	.	.	.	.	.	.	.	.	.	.	.	.	.	.	.	.	.	.	.	.	.	.	.	.	.	.	.	.	32ff#\	.
.	.	.	.	.	.	.	.	.	.	.	.	.	.	.	.	.	.	16g/ 16G/	.	.	.	.	.	.	.	.	.	.	.	.	.	.	.	.	32gg\	.
.	.	.	.	.	.	.	.	.	.	.	.	.	.	.	.	.	.	.	.	.	.	.	.	.	.	.	.	.	.	.	.	.	.	.	32ff#\JJJ	.
*	*	*	*	*	*	*	*	*	*	*	*	*	*	*	*	*	*	*	*	*	*	*	*	*	*	*	*	*	*	*	*	*	*	*	*Xrep	*
8GG/J	.	8G\J	.	8G\J 8GG^<\	.	8B\	-wa	.	8B/ 8G/	-wa	.	8g\	-wa	.	8dd/ 8b/	-wa	.	16g/ 16G/	.	8gg\	.	8bb\	.	8g/J	8g\J	.	8B\ 8G\	.	8g/J 8G/	.	8b/ 8g/	.	8bb\ 8gg\	.	32gg\LLL	.
.	.	.	.	.	.	.	.	.	.	.	.	.	.	.	.	.	.	.	.	.	.	.	.	.	.	.	.	.	.	.	.	.	.	.	32aa\	.
.	.	.	.	.	.	.	.	.	.	.	.	.	.	.	.	.	.	16g/JJ 16G/	.	.	.	.	.	.	.	.	.	.	.	.	.	.	.	.	32bb\	.
.	.	.	.	.	.	.	.	.	.	.	.	.	.	.	.	.	.	.	.	.	.	.	.	.	.	.	.	.	.	.	.	.	.	.	32ccc\JJJ)	.
*Xrep	*	*Xrep	*	*Xrep	*	*	*	*	*	*	*	*	*	*	*	*	*	*Xrep	*	*	*	*	*	*	*	*	*	*	*	*	*	*	*	*	*	*
*	*	*	*	*	*	*	*	*	*	*	*	*	*	*	*	*	*	*	*	*	*	*	*	*v	*v	*	*	*	*	*	*	*	*	*	*	*
=33	=33	=33	=33	=33	=33	=33	=33	=33	=33	=33	=33	=33	=33	=33	=33	=33	=33	=33	=33	=33	=33	=33	=33	=33	=33	=33	=33	=33	=33	=33	=33	=33	=33	=33	=33
*	*	*tremolo	*	*	*	*	*	*	*	*	*	*	*	*	*	*	*	*	*	*	*	*	*	*	*	*	*	*	*	*	*	*	*	*	*
8D\L	.	8D\L	.	8d\L 8D^<\	.	16d\	zgi-	.	16A/ 16F#/	zgi-	.	16f#\	zgi-	.	16dd/ 16a/	zgi-	.	16dd\LL 16d\	.	16ff#\LL	.	16aa\LL 16dd\	.	8..dd\L	.	16A\LL 16F#\	.	8d/ 8D/	.	16a/LL 16f#/	.	16aa\LL 16ff#\	.	(32ddd\LLL	.
.	.	.	.	.	.	.	.	.	.	.	.	.	.	.	.	.	.	.	.	.	.	.	.	.	.	.	.	.	.	.	.	.	.	32ccc#X\	.
.	.	.	.	.	.	16d\	-nie	.	16B/ 16G/	-nie	.	16g\	-nie	.	16dd/ 16b/	-nie	.	16dd\ 16d\	.	16gg\JJ	.	16bb\JJ 16dd\	.	.	.	16B\JJ 16G\	.	.	.	16b/JJ 16g/	.	16bb\JJ 16gg\	.	32ddd\	.
.	.	.	.	.	.	.	.	.	.	.	.	.	.	.	.	.	.	.	.	.	.	.	.	.	.	.	.	.	.	.	.	.	.	32ccc#\JJJ	.
*	*	*	*	*	*	*	*	*	*	*	*	*	*	*	*	*	*	*	*	*	*	*	*	*	*	*	*	*	*	*	*	*	*	*rep	*
8D\	.	8D\	.	8d\ 8D^<\	.	4d\	wróg	.	4c/ 4A/	wróg	.	4a\	wróg	.	4dd/ 4cc/	wróg	.	16dd\ 16d\	.	4aa\	.	4ccc\ 4dd\	.	.	.	4c\ 4A\	.	4d/ 4D/	.	4cc/ 4a/	.	4ccc\ 4aa\	.	32ddd\LLL	.
.	.	.	.	.	.	.	.	.	.	.	.	.	.	.	.	.	.	.	.	.	.	.	.	.	.	.	.	.	.	.	.	.	.	32ccc#\	.
.	.	.	.	.	.	.	.	.	.	.	.	.	.	.	.	.	.	16dd\ 16d\	.	.	.	.	.	.	.	.	.	.	.	.	.	.	.	32ddd\	.
.	.	.	.	.	.	.	.	.	.	.	.	.	.	.	.	.	.	.	.	.	.	.	.	32dd\KL	.	.	.	.	.	.	.	.	.	32ccc#\JJJ	.
*	*	*	*	*	*	*	*	*	*	*	*	*	*	*	*	*	*	*	*	*	*	*	*	*	*	*	*	*	*	*	*	*	*	*Xrep	*
*	*	*	*	*	*	*	*	*	*	*	*	*	*	*	*	*	*	*	*	*	*	*	*	*	*	*	*	*	*	*	*	*	*	*rep	*
8D\J	.	8D\J	.	8d\J 8D^<\	.	.	.	.	.	.	.	.	.	.	.	.	.	16dd\ 16d\	.	.	.	.	.	16.dd\	.	.	.	.	.	.	.	.	.	32ddd\LLL	.
.	.	.	.	.	.	.	.	.	.	.	.	.	.	.	.	.	.	.	.	.	.	.	.	.	.	.	.	.	.	.	.	.	.	32ccc#\	.
.	.	.	.	.	.	.	.	.	.	.	.	.	.	.	.	.	.	16dd\JJ 16d\	.	.	.	.	.	.	.	.	.	.	.	.	.	.	.	32ddd\	.
.	.	.	.	.	.	.	.	.	.	.	.	.	.	.	.	.	.	.	.	.	.	.	.	32dd\JJk	.	.	.	.	.	.	.	.	.	32ccc#\JJJ)	.
*	*	*	*	*	*	*	*	*	*	*	*	*	*	*	*	*	*	*	*	*	*	*	*	*	*	*	*	*	*	*	*	*	*	*Xrep	*
=34	=34	=34	=34	=34	=34	=34	=34	=34	=34	=34	=34	=34	=34	=34	=34	=34	=34	=34	=34	=34	=34	=34	=34	=34	=34	=34	=34	=34	=34	=34	=34	=34	=34	=34	=34
*tremolo	*	*	*	*rep	*	*	*	*	*	*	*	*	*	*	*	*	*	*rep	*	*	*	*	*	*rep	*	*rep	*	*rep	*	*rep	*	*rep	*	*rep	*
8D\L	.	8D\L	.	8d\L 8D^<\	.	16d\	Da-	.	16A/ 16F#/	Da-	.	16f#\	Da-	.	16dd/ 16a/	Da-	.	16dd\LL 16d\	.	16ff#\LL	.	16aa\LL 16dd\	.	8..dd\L	.	16A\LL 16F#\	.	8d/ 8D/	.	16a/LL 16f#/	.	16aa\LL 16ff#\	.	(32ddd\LLL	.
.	.	.	.	.	.	.	.	.	.	.	.	.	.	.	.	.	.	.	.	.	.	.	.	.	.	.	.	.	.	.	.	.	.	32ccc#X\	.
.	.	.	.	.	.	16d\	-li-	.	16B/ 16G/	-li-	.	16g\	-li-	.	16dd/ 16b/	-li-	.	16dd\ 16d\	.	16gg\JJ	.	16bb\JJ 16dd\	.	.	.	16B\JJ 16G\	.	.	.	16b/JJ 16g/	.	16bb\JJ 16gg\	.	32ddd\	.
.	.	.	.	.	.	.	.	.	.	.	.	.	.	.	.	.	.	.	.	.	.	.	.	.	.	.	.	.	.	.	.	.	.	32ccc#\JJJ	.
8D\	.	8D\	.	8d\ 8D^<\	.	4d\	-bóg	.	4c/ 4A/	-bóg	.	4a\	-bóg	.	4dd/ 4cc/	-bóg	.	16dd\ 16d\	.	4aa\	.	4ccc\ 4dd\	.	.	.	4c\ 4A\	.	4d/ 4D/	.	4cc/ 4a/	.	4ccc\ 4aa\	.	32ddd\LLL	.
.	.	.	.	.	.	.	.	.	.	.	.	.	.	.	.	.	.	.	.	.	.	.	.	.	.	.	.	.	.	.	.	.	.	32ccc#\	.
.	.	.	.	.	.	.	.	.	.	.	.	.	.	.	.	.	.	16dd\ 16d\	.	.	.	.	.	.	.	.	.	.	.	.	.	.	.	32ddd\	.
.	.	.	.	.	.	.	.	.	.	.	.	.	.	.	.	.	.	.	.	.	.	.	.	32dd\KL	.	.	.	.	.	.	.	.	.	32ccc#\JJJ	.
8D\J	.	8D\J	.	8d\J 8D^<\	.	.	.	.	.	.	.	.	.	.	.	.	.	16dd\ 16d\	.	.	.	.	.	16.dd\	.	.	.	.	.	.	.	.	.	32ddd\LLL	.
.	.	.	.	.	.	.	.	.	.	.	.	.	.	.	.	.	.	.	.	.	.	.	.	.	.	.	.	.	.	.	.	.	.	32ccc#\	.
.	.	.	.	.	.	.	.	.	.	.	.	.	.	.	.	.	.	16dd\JJ 16d\	.	.	.	.	.	.	.	.	.	.	.	.	.	.	.	32ddd\	.
.	.	.	.	.	.	.	.	.	.	.	.	.	.	.	.	.	.	.	.	.	.	.	.	32dd\JJk	.	.	.	.	.	.	.	.	.	32ccc#\JJJ)	.
*	*	*	*	*	*	*	*	*	*	*	*	*	*	*	*	*	*	*Xrep	*	*	*	*	*	*	*	*	*	*	*	*	*	*	*	*	*
*	*	*	*	*Xrep	*	*	*	*	*	*	*	*	*	*	*	*	*	*Xtremolo	*	*	*	*	*	*Xrep	*	*Xrep	*	*Xrep	*	*Xrep	*	*Xrep	*	*Xrep	*
=35	=35	=35	=35	=35	=35	=35	=35	=35	=35	=35	=35	=35	=35	=35	=35	=35	=35	=35	=35	=35	=35	=35	=35	=35	=35	=35	=35	=35	=35	=35	=35	=35	=35	=35	=35
*	*	*	*	*rep	*	*	*	*	*	*	*	*	*	*	*	*	*	*	*	*	*	*	*	*	*	*	*	*	*	*	*	*	*	*	*
8D\L	.	8D\L	.	8d\L 8D^<\	.	16d\	nas	.	16c/ 16F#/	nas	.	16f#\	nas	.	16dd\ 16cc\	nas	.	16dd\LL 16d\	.	16cc/LL 16d/	.	16dd/LL 16d/	.	16dd\LL	.	16A\LL 16D\	.	16d/LL 16D/	.	16cc/LL 16f#/	.	16ccc\LL 16dd\	.	16ddd\LL	.
!	!	!	!	!	!	!	!	!	!	!	!	!	!	!	!	!	!	!LO:N:vis=16	!	!LO:N:vis=16	!	!LO:N:vis=16	!	!LO:N:vis=16	!	!LO:N:vis=16	!	!LO:N:vis=16	!	!LO:N:vis=16	!	!LO:N:vis=16	!	!LO:N:vis=16	!
.	.	.	.	.	.	16d\	u-	.	16c/ 16F#/	u-	.	16f#\	u-	.	16dd\ 16cc\	u-	.	32r	.	32r	.	32r	.	32r	.	32r	.	32r	.	32r	.	32r	.	32r	.
.	.	.	.	.	.	.	.	.	.	.	.	.	.	.	.	.	.	32f#\JJk	.	32cc/JJk 32d/	.	32dd/JJk	.	32dd\JJk	.	32A\JJk 32D\	.	32d/JJk 32D/	.	32cc/JJk 32f#/	.	32ccc\JJk 32dd\	.	32ddd\JJk	.
8D\	.	8D\	.	8d\ 8D^<\	.	8d\	-wień-	.	8c/ 8G/	-wień-	.	8g\	-wień-	.	8ee\ 8cc\	-wień-	.	8g\L	.	8cc/L 8d/	.	8ee/L	.	8ee\L	.	8A\L 8D\	.	8d/L 8D/	.	8cc/L 8g/	.	8ccc\L 8ee\	.	8eee'\L	.
8D\J	.	8D\J	.	8d\J 8D^<\	.	8D/	-czy	.	8c/ 8A/	-czy	.	8a\	-czy	.	8ff#\ 8cc\	-czy	.	8a\J	.	8cc/J 8d/	.	8ff#/J	.	8dd\J	.	8A\J 8D\	.	8d/J 8D/	.	8cc/J 8a/	.	8ccc\J 8ff#\	.	8fff#'\J	.
*Xtremolo	*	*Xtremolo	*	*Xrep	*	*	*	*	*	*	*	*	*	*	*	*	*	*	*	*	*	*	*	*	*	*	*	*	*	*	*	*	*	*	*
=36	=36	=36	=36	=36	=36	=36	=36	=36	=36	=36	=36	=36	=36	=36	=36	=36	=36	=36	=36	=36	=36	=36	=36	=36	=36	=36	=36	=36	=36	=36	=36	=36	=36	=36	=36
4GG/	.	4G\	.	4G\	.	4.G\	sła-	.	4.B/ 4.G/	sła-	.	4.g\	sła-	.	4.gg\ 4.b\	sła-	.	4g\	.	4b/ 4d/	.	8.ggM\L	.	4g/	.	4B\ 4G\	.	4B/ 4G/	.	4b/ 4g/	.	4bb\ 4gg\	.	8ggg\	.
.	.	.	.	.	.	.	.	.	.	.	.	.	.	.	.	.	.	.	.	.	.	.	.	.	.	.	.	.	.	.	.	.	.	8r	.
.	.	.	.	.	.	.	.	.	.	.	.	.	.	.	.	.	.	.	.	.	.	16aa'\L	.	.	.	.	.	.	.	.	.	.	.	.	.
8r	.	8r	.	8r	.	.	.	.	.	.	.	.	.	.	.	.	.	8r	.	8r	.	16gg'\	.	8r	.	8r	.	8r	.	8r	.	8r	.	8r	.
.	.	.	.	.	.	.	.	.	.	.	.	.	.	.	.	.	.	.	.	.	.	16ff#'\JJ	.	.	.	.	.	.	.	.	.	.	.	.	.
!!LO:PB:g=original
!LO:LB:g=original	!	!LO:LB:g=original	!	!	!	!	!	!	!	!	!	!	!	!	!	!	!	!	!	!	!	!	!	!	!	!	!	!	!	!	!	!	!	!	!
=37	=37	=37	=37	=37	=37	=37	=37	=37	=37	=37	=37	=37	=37	=37	=37	=37	=37	=37	=37	=37	=37	=37	=37	=37	=37	=37	=37	=37	=37	=37	=37	=37	=37	=37	=37
*	*	*	*	*	*	*	*	*	*	*	*	*	*	*	*	*	*	*	*	*	*	*	*	*^	*	*	*	*	*	*^	*	*^	*	*	*
!	!	!	!	!	!LO:DY:rj	!	!	!	!	!	!	!	!	!	!	!	!	!	!LO:DY:rj	!	!LO:DY:rj	!	!LO:DY:rj	!	!	!LO:DY:rj	!	!LO:DY:rj	!	!LO:DY:rj	!	!	!LO:DY:rj	!	!	!LO:DY:rj	!	!LO:DY:rj
4.r	.	16E\LL	f	16E\LL	ff	4G\	-wa	.	4B\ 4G\	-wa	.	4g\	-wa	.	4gg\ 4b\	-wa	.	16e\LL	ff	16b/LL 16g/	ff	16ee\LL	ff	16e/LL	16e\LL	ff	16B\LL 16E\	ff	16g/LL 16B/	ff	16ee/LL	16b\LL	ff	16ee/LL	16g\LL	ff	16ee\LL	f
!	!	!	!	!	!	!	!	!	!	!	!	!	!	!	!	!	!	!	!	!	!	!	!	!	!	!	!	!	!	!	!LO:N:vis=16	!	!	!LO:N:vis=16	!	!	!	!
!	!	!LO:N:vis=16	!	!LO:N:vis=16	!	!	!	!	!	!	!	!	!	!	!	!	!	!LO:N:vis=16	!	!LO:N:vis=16	!	!LO:N:vis=16	!	!LO:N:vis=16	!	!	!LO:N:vis=16	!	!LO:N:vis=16	!	!LO:N:vis=16	!	!	!LO:N:vis=16	!	!	!LO:N:vis=16	!
.	.	32r	.	32r	.	.	.	.	.	.	.	.	.	.	.	.	.	32r	.	32r	.	32r	.	32r	32ryy	.	32r	.	32r	.	32r	32r	.	32r	32r	.	32r	.
.	.	32E\JJk	.	32E\JJk	.	.	.	.	.	.	.	.	.	.	.	.	.	32e\JJk	.	32b/JJk 32g/	.	32ee\JJk	.	32e/JJk	32e\JJk	.	32B\JJk 32E\	.	32g/JJk 32B/	.	32ee/JJk	32b\JJk	.	32ee/JJk	32g\JJk	.	32ee\JJk	.
.	.	8E\L	.	8E\L	.	.	.	.	.	.	.	.	.	.	.	.	.	8e\L	.	8b/L 8g/	.	8gg'\L	.	8e/L	8ryy	.	8B\L 8E\	.	8g/L 8B/	.	8gg/L	8b\L	.	8gg/L	8g\L	.	8gg'\L	.
.	.	8E\J	.	8E\J	.	8r	.	.	8r	.	.	8r	.	.	8r	.	.	8e\J	.	8b/J 8g/	.	8bb'\J	.	8e/J	8ryy	.	8B\J 8E\	.	8g/J 8B/	.	8bb/J	8b\J	.	8bb/J	8g\J	.	8bb'\J	.
*	*	*	*	*	*	*	*	*	*	*	*	*	*	*	*	*	*	*	*	*	*	*	*	*v	*v	*	*	*	*	*	*	*	*	*	*	*	*	*
=38	=38	=38	=38	=38	=38	=38	=38	=38	=38	=38	=38	=38	=38	=38	=38	=38	=38	=38	=38	=38	=38	=38	=38	=38	=38	=38	=38	=38	=38	=38	=38	=38	=38	=38	=38	=38	=38
*	*	*	*	*	*	*	*	*	*	*	*	*	*	*	*	*	*	*	*	*	*	*	*	*	*	*	*	*^	*	*	*	*	*	*	*	*	*
4.r	.	8E\L	.	8E^<\L	.	4.r	.	.	4.r	.	.	4.r	.	.	4.r	.	.	8g^<\L	.	8cc#X'^<\L	.	16aa#X\LL	.	8e^/L	.	8c#X\L 8E^<\	.	8g/L	8g^\L	.	16aa#X/LL	8cc#X^<\L	.	16aa#X/LL	8g^>\L	.	16aa#X\LL	.
!	!	!	!	!	!	!	!	!	!	!	!	!	!	!	!	!	!	!	!	!	!	!LO:N:vis=16	!	!	!	!	!	!	!	!	!LO:N:vis=16	!	!	!LO:N:vis=16	!	!	!LO:N:vis=16	!
.	.	.	.	.	.	.	.	.	.	.	.	.	.	.	.	.	.	.	.	.	.	32r	.	.	.	.	.	.	.	.	32raa	.	.	32raa	.	.	32r	.
.	.	.	.	.	.	.	.	.	.	.	.	.	.	.	.	.	.	.	.	.	.	32aa#\JJk	.	.	.	.	.	.	.	.	32aa#/JJk	.	.	32aa#/JJk	.	.	32aa#\JJk	.
.	.	8E\	.	8E^<\	.	.	.	.	.	.	.	.	.	.	.	.	.	8a\ 8f#^<\	.	8dd#X'^<\	.	8cccn^<\L	.	8e^/	.	8d#X\ 8A\ 8F#^<\	.	8a/	8a^\	.	8cccn/L	8dd#X^<\	.	8cccn/L	8f#^>\	.	8cccn'^<\L	.
.	.	8E\J	.	8E^<\J	.	.	.	.	.	.	.	.	.	.	.	.	.	8g^<\J	.	8ee'^<\J	.	8bb^<\J	.	8e^/J	.	8e\J 8G^<\	.	8g/J	8g^\J	.	8bb/J	8ee^<\J	.	8bb/J	8g^>\J	.	8bb'^<\J	.
=39	=39	=39	=39	=39	=39	=39	=39	=39	=39	=39	=39	=39	=39	=39	=39	=39	=39	=39	=39	=39	=39	=39	=39	=39	=39	=39	=39	=39	=39	=39	=39	=39	=39	=39	=39	=39	=39	=39
4.r	.	16E\LL	.	16E\LL	.	4.ryy	.	.	4.ryy	.	.	4.ryy	.	.	4.ryy	.	.	16g\LL	.	16cc#X\LL	.	16aa#X\LL	.	16e/LL	.	16c#X\LL 16E\	.	16cg/LL	16g\LL	.	16aa#X/LL	16cc#X\LL	.	16aa#X/LL	16g\LL	.	16aa#X\LL	.
!	!	!	!	!	!	!	!	!	!	!	!	!	!	!	!	!	!	!	!	!	!	!	!	!	!	!	!	!LO:N:vis=16	!	!	!LO:N:vis=16	!	!	!LO:N:vis=16	!	!	!	!
!	!	!LO:N:vis=16	!	!LO:N:vis=16	!	!	!	!	!	!	!	!	!	!	!	!	!	!LO:N:vis=16	!	!LO:N:vis=16	!	!LO:N:vis=16	!	!LO:N:vis=16	!	!LO:N:vis=16	!	!LO:N:vis=16	!	!	!LO:N:vis=16	!	!	!LO:N:vis=16	!LO:N:vis=16	!	!LO:N:vis=16	!
.	.	32r	.	32r	.	.	.	.	.	.	.	.	.	.	.	.	.	32r	.	32r	.	32r	.	32r	.	32r	.	32r	32ryy	.	32r	32r	.	32raa	32r	.	32r	.
.	.	32E\JJk	.	32E\JJk	.	.	.	.	.	.	.	.	.	.	.	.	.	32g\JJk	.	32cc#\JJk	.	32aa#\JJk	.	32e/JJk	.	32c#\JJk 32E\	.	32g/JJk	32g\JJk	.	32aa#/JJk	32cc#\JJk	.	32aa#/JJk	32g\JJk	.	32aa#\JJk	.
.	.	16E\	.	16E^<\	.	.	.	.	.	.	.	.	.	.	.	.	.	16a\ 16f#^<\	.	16dd#X^<\	.	16cccn^<\	.	16e^/	.	16d#X\ 16F#^<\	.	16a/	16a^\	.	16cccn/	16dd#X^\	.	16cccn/	16f#^>\	.	16cccn^<\	.
.	.	16r	.	16r	.	.	.	.	.	.	.	.	.	.	.	.	.	16r	.	16r	.	16r	.	16r	.	16r	.	16r	16ryy	.	16r	16ryy	.	16r	16r	.	16r	.
.	.	16E\	.	16E^<\	.	.	.	.	.	.	.	.	.	.	.	.	.	16g^<\	.	16ee^<\	.	16bb^<\	.	16g/ 16e^/	.	16e\ 16G^<\	.	16g/	16g^\	.	16bb/	16ee^\	.	16bb/	16g^>\	.	16bb^<\	.
.	.	16r	.	16r	.	.	.	.	.	.	.	.	.	.	.	.	.	16r	.	16r	.	16r	.	16r	.	16r	.	16r	16ryy	.	16r	16ryy	.	16r	16r	.	16r	.
*	*	*	*	*	*	*	*	*	*	*	*	*	*	*	*	*	*	*	*	*	*	*	*	*	*	*	*	*v	*v	*	*	*	*	*	*	*	*	*
=40	=40	=40	=40	=40	=40	=40	=40	=40	=40	=40	=40	=40	=40	=40	=40	=40	=40	=40	=40	=40	=40	=40	=40	=40	=40	=40	=40	=40	=40	=40	=40	=40	=40	=40	=40	=40	=40
*	*	*	*	*	*	*	*	*	*	*	*	*	*	*	*	*	*	*	*	*	*	*	*	*	*	*^	*	*	*	*	*	*	*	*	*	*	*
*tremolo	*	*	*	*	*	*	*	*	*	*	*	*	*	*	*	*	*	*	*	*	*	*	*	*	*	*	*	*	*	*	*	*	*	*	*	*	*	*
!LO:TX:t=P:problem=tremolo oznaczone wężykiem	!	!	!	!	!	!	!	!	!	!	!	!	!	!	!	!	!	!LO:S:s=2:note:problem=note-level slur	!LO:DY:rj	!LO:S:s=2:note:problem=note-level slur	!LO:DY:rj	!	!LO:DY:rj	!	!LO:DY:rj	!	!	!LO:DY:rj	!	!LO:DY:a:rj	!	!	!LO:DY:rj	!	!	!LO:DY:rj	!	!
32GG/LLL	sf >	4.E\	sf >	(4.E\	sf >	4.ryy	.	.	4.ryy	.	.	4.ryy	.	.	4.ryy	.	.	((>4.b-X\ 4.g\	sf >	(>(>4.ee\ 4.cc#X\	sf >	([4ggg\	sf >	4.b-X/ 4.e/	sf	(>4.c#X/	(>4.B-X\	sf	4.g/ 4.G/	sf	(4.bb-X/	(>4.cc#X\	sf	([4gg/	[4gg\	sf	([4ggg\	sf >
32GG/	.	.	.	.	.	.	.	.	.	.	.	.	.	.	.	.	.	.	.	.	.	.	.	.	.	.	.	.	.	.	.	.	.	.	.	.	.	.
32GG/	.	.	.	.	.	.	.	.	.	.	.	.	.	.	.	.	.	.	.	.	.	.	.	.	.	.	.	.	.	.	.	.	.	.	.	.	.	.
32GG/	.	.	.	.	.	.	.	.	.	.	.	.	.	.	.	.	.	.	.	.	.	.	.	.	.	.	.	.	.	.	.	.	.	.	.	.	.	.
32GG/	.	.	.	.	.	.	.	.	.	.	.	.	.	.	.	.	.	.	.	.	.	.	.	.	.	.	.	.	.	.	.	.	.	.	.	.	.	.
32GG/	.	.	.	.	.	.	.	.	.	.	.	.	.	.	.	.	.	.	.	.	.	.	.	.	.	.	.	.	.	.	.	.	.	.	.	.	.	.
32GG/	.	.	.	.	.	.	.	.	.	.	.	.	.	.	.	.	.	.	.	.	.	.	.	.	.	.	.	.	.	.	.	.	.	.	.	.	.	.
32GG/	]	.	]	.	.	.	.	.	.	.	.	.	.	.	.	.	.	.	.	.	.	.	.	.	.	.	.	.	.	.	.	.	.	.	.	.	.	.
32GG/	.	.	.	.	]	.	.	.	.	.	.	.	.	.	.	.	.	.	]	.	]	16ggg\LL]	]	.	.	.	.	>	.	>	.	.	>	16gg/LL]	16gg\LL]	.	16ggg\LL]	]
32GG/	.	.	.	.	.	.	.	.	.	.	.	.	.	.	.	.	.	.	.	.	.	.	.	.	.	.	.	.	.	.	.	.	.	.	.	.	.	.
32GG/	.	.	.	.	.	.	.	.	.	.	.	.	.	.	.	.	.	.	.	.	.	32fff#\L	.	.	.	.	.	]	.	]	.	.	]	32ff#/L	32ff#\L	.	32fff#\L	.
32GG/JJJ	.	.	.	.	.	.	.	.	.	.	.	.	.	.	.	.	.	.	.	.	.	32eee\JJJ	.	.	.	.	.	.	.	.	.	.	.	32ee/JJJ	32ee\JJJ	.	32eee\JJJ	.
*Xtremolo	*	*	*	*	*	*	*	*	*	*	*	*	*	*	*	*	*	*	*	*	*	*	*	*	*	*	*	*	*	*	*	*	*	*	*	*	*	*
*	*	*	*	*	*	*	*	*	*	*	*	*	*	*	*	*	*	*	*	*	*	*	*	*	*	*v	*v	*	*	*	*	*	*	*	*	*	*	*
=41	=41	=41	=41	=41	=41	=41	=41	=41	=41	=41	=41	=41	=41	=41	=41	=41	=41	=41	=41	=41	=41	=41	=41	=41	=41	=41	=41	=41	=41	=41	=41	=41	=41	=41	=41	=41	=41
*	*	*	*	*	*	*	*	*	*	*	*	*	*	*	*	*	*	*	*	*	*	*	*	*^	*	*	*	*	*	*	*	*	*	*	*	*	*
!	!	!	!	!	!	!	!	!	!	!	!	!	!	!	!	!	!	!	!	!	!	!	!	!	!	!	!LO:S:s=2:note:problem=note-level slur	!	!	!	!	!	!	!	!	!	!	!
8D\L	.	8F#\L	.	8F#\L)	.	4.ryy	.	.	4.ryy	.	.	4.ryy	.	.	4.ryy	.	.	16a\LL 16f#\))	.	16dd/LL))	.	16ddd\LL)	.	8r	8ryy	.	8d\ 8A\))	.	8a/ 8d/	.	8aa/)	8dd\)	.	8dd/)	8dd\	.	16ddd\LL)	.
!	!	!	!	!	!	!	!	!	!	!	!	!	!	!	!	!	!	!	!	!	!	!LO:N:vis=16	!	!	!	!	!	!	!	!	!	!	!	!	!	!	!LO:N:vis=16	!
.	.	.	.	.	.	.	.	.	.	.	.	.	.	.	.	.	.	16d\JJ	.	16d/JJ	.	32r	.	.	.	.	.	.	.	.	.	.	.	.	.	.	32r	.
.	.	.	.	.	.	.	.	.	.	.	.	.	.	.	.	.	.	.	.	.	.	32ccc\JJk	.	.	.	.	.	.	.	.	.	.	.	.	.	.	32ccc\JJk	.
*	*	*	*	*	*	*	*	*	*	*	*	*	*	*	*	*	*	*tremolo	*	*tremolo	*	*	*	*	*	*	*	*	*	*	*	*	*	*	*	*	*	*
8D\	.	8F#\	.	8F#\	.	.	.	.	.	.	.	.	.	.	.	.	.	16a\LL	.	16ccn/LL 16d/	.	4aa\	.	16.dd/LL	16.dd\LL	.	4c\ 4A\	.	4a/ 4d/	.	4aa/	4ccn\	.	4aa/	4ccn\	.	4aa\	.
.	.	.	.	.	.	.	.	.	.	.	.	.	.	.	.	.	.	16a\	.	16cc/ 16d/	.	.	.	.	.	.	.	.	.	.	.	.	.	.	.	.	.	.
.	.	.	.	.	.	.	.	.	.	.	.	.	.	.	.	.	.	.	.	.	.	.	.	32dd/JJk	32dd\JJk	.	.	.	.	.	.	.	.	.	.	.	.	.
8D\J	.	8F#\J	.	8F#\J	.	.	.	.	.	.	.	.	.	.	.	.	.	16a\	.	16cc/ 16d/	.	.	.	8dd/	8dd\	.	.	.	.	.	.	.	.	.	.	.	.	.
.	.	.	.	.	.	.	.	.	.	.	.	.	.	.	.	.	.	16a\JJ	.	16cc/JJ 16d/	.	.	.	.	.	.	.	.	.	.	.	.	.	.	.	.	.	.
*	*	*	*	*	*	*	*	*	*	*	*	*	*	*	*	*	*	*	*	*	*	*	*	*	*	*	*	*	*	*	*v	*v	*	*	*	*	*	*
*	*	*	*	*	*	*	*	*	*	*	*	*	*	*	*	*	*	*	*	*	*	*	*	*	*	*	*	*	*	*	*	*	*v	*v	*	*	*
=42	=42	=42	=42	=42	=42	=42	=42	=42	=42	=42	=42	=42	=42	=42	=42	=42	=42	=42	=42	=42	=42	=42	=42	=42	=42	=42	=42	=42	=42	=42	=42	=42	=42	=42	=42	=42
*tremolo	*	*tremolo	*	*tremolo	*	*	*	*	*	*	*	*	*	*	*	*	*	*	*	*	*	*	*	*	*	*	*	*	*	*	*	*	*	*	*	*
!	!	!	!	!	!	!	!	!	!	!	!	!	!	!	!	!	!	!	!	!	!	!	!	!	!	!	!	!	!	!	!	!	!LO:N:vis=16	!	!	!
8D\L	.	8G\L	.	8G\L	.	4.ryy	.	.	4.ryy	.	.	4.ryy	.	.	4.ryy	.	.	16g\LL	.	16b/LL 16d/	.	16dd\LL	.	8r	8ryy	.	8B\ 8G\	.	8g/ 8B/	.	8gg/ 8dd/ 8b/	.	8dd\ 8b\	.	16dd\LL	.
!	!	!	!	!	!	!	!	!	!	!	!	!	!	!	!	!	!	!	!	!	!	!LO:N:vis=16	!	!	!	!	!	!	!	!	!	!	!	!	!LO:N:vis=16	!
.	.	.	.	.	.	.	.	.	.	.	.	.	.	.	.	.	.	16g\	.	16b/ 16d/	.	32r	.	.	.	.	.	.	.	.	.	.	.	.	32r	.
.	.	.	.	.	.	.	.	.	.	.	.	.	.	.	.	.	.	.	.	.	.	32gg\JJk	.	.	.	.	.	.	.	.	.	.	.	.	32gg\JJk	.
8D\	.	8G\	.	8G\	.	.	.	.	.	.	.	.	.	.	.	.	.	16g\	.	16b/ 16d/	.	4bb\	.	16.dd/LL	16.dd\LL	.	4d\ 4B\	.	4b\ 4g\	.	4gg/ 4b/	.	4bb\ 4gg\	.	4bb\	.
.	.	.	.	.	.	.	.	.	.	.	.	.	.	.	.	.	.	16g\	.	16b/ 16d/	.	.	.	.	.	.	.	.	.	.	.	.	.	.	.	.
.	.	.	.	.	.	.	.	.	.	.	.	.	.	.	.	.	.	.	.	.	.	.	.	32dd/JJk	32dd\JJk	.	.	.	.	.	.	.	.	.	.	.
8D\J	.	8G\J	.	8G\J	.	.	.	.	.	.	.	.	.	.	.	.	.	16g\	.	16b/ 16d/	.	.	.	8dd/	8dd\	.	.	.	.	.	.	.	.	.	.	.
.	.	.	.	.	.	.	.	.	.	.	.	.	.	.	.	.	.	16g\JJ	.	16b/JJ 16d/	.	.	.	.	.	.	.	.	.	.	.	.	.	.	.	.
=43	=43	=43	=43	=43	=43	=43	=43	=43	=43	=43	=43	=43	=43	=43	=43	=43	=43	=43	=43	=43	=43	=43	=43	=43	=43	=43	=43	=43	=43	=43	=43	=43	=43	=43	=43	=43
*	*	*	*	*	*	*	*	*	*	*	*	*	*	*	*	*	*	*	*	*	*	*	*	*rep	*rep	*	*	*	*	*	*	*	*	*	*	*
8D\L	.	8D\L	.	8D\L	.	4.ryy	.	.	4.ryy	.	.	4.ryy	.	.	4.ryy	.	.	16a\LL 16f#\	.	16cc/LL 16d/	.	16aa'\LL	.	8r	8ryy	.	8c\L 8A\	.	8a/L 8d/	.	8ff#/L 8cc/	.	8aa\L 8dd\	.	16aa'\LL	.
.	.	.	.	.	.	.	.	.	.	.	.	.	.	.	.	.	.	16a\ 16f#\	.	16cc/ 16d/	.	16bb'\	.	.	.	.	.	.	.	.	.	.	.	.	16bb'\	.
8D\	.	8D\	.	8D\	.	.	.	.	.	.	.	.	.	.	.	.	.	16a\ 16f#\	.	16cc/ 16d/	.	16ccc'\	.	16.dd/LL	16.dd\LL	.	8c\ 8A\	.	8a/ 8d/	.	8ff#/ 8cc/	.	8aa\ 8dd\	.	16ccc'\	.
.	.	.	.	.	.	.	.	.	.	.	.	.	.	.	.	.	.	16a\ 16f#\	.	16cc/ 16d/	.	16ddd'\	.	.	.	.	.	.	.	.	.	.	.	.	16ddd'\	.
.	.	.	.	.	.	.	.	.	.	.	.	.	.	.	.	.	.	.	.	.	.	.	.	32dd/JJk	32dd\JJk	.	.	.	.	.	.	.	.	.	.	.
8D\J	.	8D\J	.	8D\J	.	.	.	.	.	.	.	.	.	.	.	.	.	16a\ 16f#\	.	16cc/ 16d/	.	16eee'\	.	8dd/	8dd\	.	8c\J 8A\	.	8a/J 8d/	.	8ff#/J 8cc/	.	8aa\J 8dd\	.	16eee'\	.
.	.	.	.	.	.	.	.	.	.	.	.	.	.	.	.	.	.	16a\JJ 16f#\	.	16cc/JJ 16d/	.	16fff#'\JJ	.	.	.	.	.	.	.	.	.	.	.	.	16fff#'\JJ	.
*	*	*	*	*	*	*	*	*	*	*	*	*	*	*	*	*	*	*	*	*	*	*	*	*Xrep	*Xrep	*	*	*	*	*	*	*	*	*	*	*
=44	=44	=44	=44	=44	=44	=44	=44	=44	=44	=44	=44	=44	=44	=44	=44	=44	=44	=44	=44	=44	=44	=44	=44	=44	=44	=44	=44	=44	=44	=44	=44	=44	=44	=44	=44	=44
*	*	*	*	*	*	*	*	*	*	*	*	*	*	*	*	*	*	*	*	*	*	*	*	*rep	*rep	*	*	*	*	*	*	*	*	*	*	*
8D\L	.	8G\L	.	8G\L	.	4.ryy	.	.	4.ryy	.	.	4.ryy	.	.	4.ryy	.	.	16b\LL 16g\	.	16b/LL 16d/	.	16ggg^<\	.	8r	8ryy	.	8B\L 8G\	.	8g/L 8B/	.	8gg/L 8b/	.	8gg\L 8b\	.	16ggg^<\	.
.	.	.	.	.	.	.	.	.	.	.	.	.	.	.	.	.	.	16b\ 16g\	.	16b/ 16d/	.	16r	.	.	.	.	.	.	.	.	.	.	.	.	16r	.
8D\	.	8G\	.	8G\	.	.	.	.	.	.	.	.	.	.	.	.	.	16b\ 16g\	.	16b/ 16d/	.	16ddd^<\	.	16.dd/LL	16.dd\LL	.	8d\ 8B\	.	8b/ 8g/	.	8gg/ 8b/	.	8bb\ 8gg\	.	16ddd^<\	.
.	.	.	.	.	.	.	.	.	.	.	.	.	.	.	.	.	.	16b\ 16g\	.	16b/ 16d/	.	16r	.	.	.	.	.	.	.	.	.	.	.	.	16r	.
.	.	.	.	.	.	.	.	.	.	.	.	.	.	.	.	.	.	.	.	.	.	.	.	32dd/JJk	32dd\JJk	.	.	.	.	.	.	.	.	.	.	.
8D\J	.	8G\J	.	8G\J	.	.	.	.	.	.	.	.	.	.	.	.	.	16b\ 16g\	.	16b/ 16d/	.	16ddd^<\	.	8dd/	8dd\	.	8d\J 8B\	.	8b/J 8g/	.	8gg/J 8b/	.	8bb\J 8gg\	.	16ddd^<\	.
.	.	.	.	.	.	.	.	.	.	.	.	.	.	.	.	.	.	16b\JJ 16g\	.	16b/JJ 16d/	.	16r	.	.	.	.	.	.	.	.	.	.	.	.	16r	.
*	*	*	*	*	*	*	*	*	*	*	*	*	*	*	*	*	*	*	*	*	*	*	*	*Xrep	*Xrep	*	*	*	*	*	*	*	*	*	*	*
=45	=45	=45	=45	=45	=45	=45	=45	=45	=45	=45	=45	=45	=45	=45	=45	=45	=45	=45	=45	=45	=45	=45	=45	=45	=45	=45	=45	=45	=45	=45	=45	=45	=45	=45	=45	=45
*	*	*	*	*	*	*	*	*	*	*	*	*	*	*	*	*	*	*	*	*	*	*	*	*	*	*	*	*	*	*	*^	*	*	*	*	*
*	*	*	*	*	*	*	*	*	*	*	*	*	*	*	*	*	*	*	*	*	*	*	*	*rep	*rep	*	*	*	*	*	*	*	*	*	*	*	*
!LO:TX:t=P:problem=tremolo oznaczone wężykiem	!	!	!	!	!	!	!	!	!	!	!	!	!	!	!	!	!	!	!	!	!	!	!	!	!	!	!	!	!	!	!	!	!	!	!	!	!
32D\LLL	.	8F#\L	.	8F#\L	.	4.ryy	.	.	4.ryy	.	.	4.ryy	.	.	4.ryy	.	.	16a\LL 16d\	.	16cc/LL 16d/	.	16ddd\LL	.	8r	8ryy	.	8A\ 8F#\	.	8a/ 8d/	.	8dd/	8dd\	.	8dd\	.	16ddd\LL	.
32D\	.	.	.	.	.	.	.	.	.	.	.	.	.	.	.	.	.	.	.	.	.	.	.	.	.	.	.	.	.	.	.	.	.	.	.	.	.
!	!	!	!	!	!	!	!	!	!	!	!	!	!	!	!	!	!	!	!	!	!	!LO:N:vis=16	!	!	!	!	!	!	!	!	!	!	!	!	!	!LO:N:vis=16	!
32D\	.	.	.	.	.	.	.	.	.	.	.	.	.	.	.	.	.	16a\ 16d\	.	16cc/ 16d/	.	32r	.	.	.	.	.	.	.	.	.	.	.	.	.	32r	.
32D\	.	.	.	.	.	.	.	.	.	.	.	.	.	.	.	.	.	.	.	.	.	32ccc\JJk	.	.	.	.	.	.	.	.	.	.	.	.	.	32ccc\JJk	.
32D\	.	8F#\	.	8F#\	.	.	.	.	.	.	.	.	.	.	.	.	.	16a\ 16d\	.	16cc/ 16d/	.	4aa\	.	16.dd/LL	16.dd\LL	.	4c\ 4A\	.	4a/ 4d/	.	4aa/	4cc\	.	4aa\ 4cc\	.	4aa\	.
32D\	.	.	.	.	.	.	.	.	.	.	.	.	.	.	.	.	.	.	.	.	.	.	.	.	.	.	.	.	.	.	.	.	.	.	.	.	.
32D\	.	.	.	.	.	.	.	.	.	.	.	.	.	.	.	.	.	16a\ 16d\	.	16cc/ 16d/	.	.	.	.	.	.	.	.	.	.	.	.	.	.	.	.	.
32D\	.	.	.	.	.	.	.	.	.	.	.	.	.	.	.	.	.	.	.	.	.	.	.	32dd/JJk	32dd\JJk	.	.	.	.	.	.	.	.	.	.	.	.
32D\	.	8F#\J	.	8F#\J	.	.	.	.	.	.	.	.	.	.	.	.	.	16a\ 16d\	.	16cc/ 16d/	.	.	.	8dd/	8dd\	.	.	.	.	.	.	.	.	.	.	.	.
32D\	.	.	.	.	.	.	.	.	.	.	.	.	.	.	.	.	.	.	.	.	.	.	.	.	.	.	.	.	.	.	.	.	.	.	.	.	.
32D\	.	.	.	.	.	.	.	.	.	.	.	.	.	.	.	.	.	16a\JJ 16d\	.	16cc/JJ 16d/	.	.	.	.	.	.	.	.	.	.	.	.	.	.	.	.	.
32D\JJJ	.	.	.	.	.	.	.	.	.	.	.	.	.	.	.	.	.	.	.	.	.	.	.	.	.	.	.	.	.	.	.	.	.	.	.	.	.
*	*	*	*	*	*	*	*	*	*	*	*	*	*	*	*	*	*	*	*	*	*	*	*	*Xrep	*Xrep	*	*	*	*	*	*	*	*	*	*	*	*
*	*	*	*	*	*	*	*	*	*	*	*	*	*	*	*	*	*	*	*	*	*	*	*	*	*	*	*	*	*	*	*v	*v	*	*	*	*	*
=46	=46	=46	=46	=46	=46	=46	=46	=46	=46	=46	=46	=46	=46	=46	=46	=46	=46	=46	=46	=46	=46	=46	=46	=46	=46	=46	=46	=46	=46	=46	=46	=46	=46	=46	=46	=46
*	*	*	*	*	*	*	*	*	*	*	*	*	*	*	*	*	*	*	*	*	*	*	*	*rep	*rep	*	*	*	*	*	*	*	*	*	*	*
!LO:TX:t=P:problem=tremolo oznaczone wężykiem	!	!	!	!	!	!	!	!	!	!	!	!	!	!	!	!	!	!	!	!	!	!	!	!	!	!	!	!	!	!	!	!	!	!	!	!
32D\LLL	.	8G\L	.	8G\L	.	4.ryy	.	.	4.ryy	.	.	4.ryy	.	.	4.ryy	.	.	16g\LL	.	16b/LL 16d/	.	16dd\LL	.	8r	8ryy	.	8B\ 8G\	.	8g/ 8G/	.	8dd/ 8b/	.	8dd/ 8b/	.	16dd\LL	.
32D\	.	.	.	.	.	.	.	.	.	.	.	.	.	.	.	.	.	.	.	.	.	.	.	.	.	.	.	.	.	.	.	.	.	.	.	.
!	!	!	!	!	!	!	!	!	!	!	!	!	!	!	!	!	!	!	!	!	!	!LO:N:vis=16	!	!	!	!	!	!	!	!	!	!	!	!	!LO:N:vis=16	!
32D\	.	.	.	.	.	.	.	.	.	.	.	.	.	.	.	.	.	16g\	.	16b/ 16d/	.	32r	.	.	.	.	.	.	.	.	.	.	.	.	32r	.
32D\	.	.	.	.	.	.	.	.	.	.	.	.	.	.	.	.	.	.	.	.	.	32gg\JJk	.	.	.	.	.	.	.	.	.	.	.	.	32gg\JJk	.
32D\	.	8G\	.	8G\	.	.	.	.	.	.	.	.	.	.	.	.	.	16g\	.	16b/ 16d/	.	4bb\	.	16.dd/LL	16.dd\LL	.	4d\ 4B\	.	4b\ 4g\	.	4gg/ 4b/	.	4bb\ 4gg\	.	4bb\	.
32D\	.	.	.	.	.	.	.	.	.	.	.	.	.	.	.	.	.	.	.	.	.	.	.	.	.	.	.	.	.	.	.	.	.	.	.	.
32D\	.	.	.	.	.	.	.	.	.	.	.	.	.	.	.	.	.	16g\	.	16b/ 16d/	.	.	.	.	.	.	.	.	.	.	.	.	.	.	.	.
32D\	.	.	.	.	.	.	.	.	.	.	.	.	.	.	.	.	.	.	.	.	.	.	.	32dd/JJk	32dd\JJk	.	.	.	.	.	.	.	.	.	.	.
32D\	.	8G\J	.	8G\J	.	.	.	.	.	.	.	.	.	.	.	.	.	16g\	.	16b/ 16d/	.	.	.	8dd/	8dd\	.	.	.	.	.	.	.	.	.	.	.
32D\	.	.	.	.	.	.	.	.	.	.	.	.	.	.	.	.	.	.	.	.	.	.	.	.	.	.	.	.	.	.	.	.	.	.	.	.
32D\	.	.	.	.	.	.	.	.	.	.	.	.	.	.	.	.	.	16g\JJ	.	16b/JJ 16d/	.	.	.	.	.	.	.	.	.	.	.	.	.	.	.	.
32D\JJJ	.	.	.	.	.	.	.	.	.	.	.	.	.	.	.	.	.	.	.	.	.	.	.	.	.	.	.	.	.	.	.	.	.	.	.	.
*Xtremolo	*	*Xtremolo	*	*Xtremolo	*	*	*	*	*	*	*	*	*	*	*	*	*	*Xtremolo	*	*Xtremolo	*	*	*	*Xrep	*Xrep	*	*	*	*	*	*	*	*	*	*	*
=47	=47	=47	=47	=47	=47	=47	=47	=47	=47	=47	=47	=47	=47	=47	=47	=47	=47	=47	=47	=47	=47	=47	=47	=47	=47	=47	=47	=47	=47	=47	=47	=47	=47	=47	=47	=47
16D\LL	.	16D/LL	.	16D\LL	.	4.ryy	.	.	4.ryy	.	.	4.ryy	.	.	4.ryy	.	.	16f#\LL	.	16a/LL	.	16aa'\LL	.	16dd/LL	16dd\LL	.	16c\LL 16A\	.	16a/LL 16d/	.	16ff#/LL 16a/	.	16aa\LL 16ff#'\	.	16aa'\LL	.
16D\	.	16D/	.	16d\	.	.	.	.	.	.	.	.	.	.	.	.	.	16g\	.	16b/	.	16bb'\	.	16dd/	16dd\	.	16c\ 16A\	.	16a/ 16d/	.	16gg/ 16b/	.	16bb\ 16gg'\	.	16bb'\	.
16D\	.	16D/	.	16D\	.	.	.	.	.	.	.	.	.	.	.	.	.	16a\	.	16cc/	.	16ccc'\	.	16dd/	16dd\	.	16c\ 16A\	.	16a/ 16d/	.	16aa/ 16cc/	.	16ccc\ 16aa'\	.	16ccc'\	.
16D\	.	16D/	.	16d\	.	.	.	.	.	.	.	.	.	.	.	.	.	16b\	.	16dd/	.	16ddd'\	.	16dd/	16dd\	.	16c\ 16A\	.	16a/ 16d/	.	16bb/ 16dd/	.	16ddd\ 16bb'\	.	16ddd'\	.
16D\	.	16D/	.	16D\	.	.	.	.	.	.	.	.	.	.	.	.	.	16cc\	.	16ee/	.	16eee'\	.	16dd/	16dd\	.	16c\ 16A\	.	16a/ 16d/	.	16ccc/ 16ee/	.	16eee\ 16ccc'\	.	16eee'\	.
16D\JJ	.	16D/JJ	.	16d\JJ	.	.	.	.	.	.	.	.	.	.	.	.	.	16a\JJ	.	16ff#/JJ	.	16fff#'\JJ	.	16dd/JJ	16dd\JJ	.	16c\JJ 16A\	.	16a/JJ 16d/	.	16ff#/JJ 16cc/	.	16ff#\JJ 16cc'\	.	16fff#'\JJ	.
*	*	*	*	*	*	*	*	*	*	*	*	*	*	*	*	*	*	*	*	*	*	*	*	*v	*v	*	*	*	*	*	*	*	*	*	*	*
=48	=48	=48	=48	=48	=48	=48	=48	=48	=48	=48	=48	=48	=48	=48	=48	=48	=48	=48	=48	=48	=48	=48	=48	=48	=48	=48	=48	=48	=48	=48	=48	=48	=48	=48	=48
16GG/	.	16G\	.	16G\	.	4.ryy	.	.	4.ryy	.	.	4.ryy	.	.	4.ryy	.	.	16b\	.	16gg\	.	16ggg\	.	16g/	.	16B\ 16G\	.	16g/ 16B/	.	16gg\ 16b\	.	16gg\ 16b\	.	16ggg\	.
16r	.	16r	.	16r	.	.	.	.	.	.	.	.	.	.	.	.	.	16r	.	16r	.	16r	.	16r	.	16r	.	16r	.	16r	.	16r	.	16r	.
8GG^/	.	8GG^/	.	8G/ 8GG^/	.	.	.	.	.	.	.	.	.	.	.	.	.	8g\ 8G\	.	8gg\ 8b\ 8d\	.	8gg\ 8b\ 8d\	.	8g/ 8G^/	.	8B\ 8G^<\	.	8g^/ 8B/	.	8gg\ 8b^<\	.	8gg\ 8b^<\	.	8gg\	.
8r;	.	8r;	.	8r;	.	.	.	.	.	.	.	.	.	.	.	.	.	8r;	.	8r;	.	8r;	.	8r;	.	8r;	.	8r;	.	8r;	.	8r;	.	8r;	.
==	==	==	==	==	==	==	==	==	==	==	==	==	==	==	==	==	==	==	==	==	==	==	==	==	==	==	==	==	==	==	==	==	==	==	==
*-	*-	*-	*-	*-	*-	*-	*-	*-	*-	*-	*-	*-	*-	*-	*-	*-	*-	*-	*-	*-	*-	*-	*-	*-	*-	*-	*-	*-	*-	*-	*-	*-	*-	*-	*-
!!!system-decoration: (s1,s2,s3,s4,s5,s6,s7,s8,s9,s10,s11,s12,s13,s14){s15,s16}
!!!RDF**kern: > = above
!!!RDF**kern: < = below
!!!EED: Andrzej Borzym
!!!EEV: 2021-05-29
!!!ENC: Krzysztof Stępień
!!!END: 2021-05-25
!!!YEC: Copyright 2022 Narodowy Instytut Fryderyka Chopina (https://polishscores.org)
!!!YEM: License CC-BY-4.0 (https://creativecommons.org/licenses/by/4.0)
